; generated by Slic3r 1.2.9 on 2018-02-04 at 14:47:31

; external perimeters extrusion width = 0.40mm
; perimeters extrusion width = 0.48mm
; infill extrusion width = 0.48mm
; solid infill extrusion width = 0.48mm
; top infill extrusion width = 0.48mm

M107
M190 S110 ; set bed temperature
M104 S200 ; set temperature
G92 ; home all axes
G1 Z5 F5000 ; lift nozzle

M109 S200 ; wait for temperature to be reached
G21 ; set units to millimeters
G90 ; use absolute coordinates
M82 ; use absolute distances for extrusion
G92 E0
G1 Z0.400 F6000.000
G1 E-3.00000 F2400.00000
G92 E0
G1 X86.780 Y74.627 F6000.000
G1 E3.00000 F2400.00000
G1 X87.645 Y73.745 E3.14824 F1800.000
G1 X90.155 Y71.621 E3.54271
G1 X91.574 Y70.699 E3.74563
G1 X94.278 Y69.394 E4.10582
G1 X96.155 Y68.807 E4.34170
G1 X98.958 Y68.367 E4.68203
G1 X101.071 Y68.372 E4.93550
G1 X103.953 Y68.838 E5.28568 F1800.000
G1 X105.872 Y69.454 E5.52742
G1 X108.646 Y70.834 E5.89913
G1 X110.077 Y71.792 E6.10567
G1 X112.641 Y74.035 E6.51425
G1 X113.501 Y74.942 E6.66421
G1 X115.228 Y77.141 E6.99958
G1 X115.740 Y77.894 E7.10889
G1 X117.258 Y80.486 E7.46917
G1 X117.756 Y81.534 E7.60839
G1 X120.043 Y87.671 E8.39400
G1 X120.378 Y88.933 E8.55064
G1 X121.517 Y95.904 E9.39788
G1 X121.604 Y97.068 E9.53786
G1 X121.519 Y104.091 E10.38043
G1 X121.406 Y105.244 E10.51939
G1 X120.152 Y111.951 E11.33785
G1 X119.793 Y113.192 E11.49281
G1 X117.469 Y119.053 E12.24908
G1 X116.954 Y120.084 E12.38729
G1 X115.445 Y122.548 E12.73395
G1 X114.922 Y123.286 E12.84237
G1 X113.220 Y125.373 E13.16538
G1 X112.355 Y126.255 E13.31363
G1 X109.845 Y128.379 E13.70809
G1 X108.426 Y129.301 E13.91102
G1 X105.722 Y130.606 E14.27120
G1 X103.845 Y131.193 E14.50708
G1 X101.042 Y131.633 E14.84741
G1 X98.929 Y131.628 E15.10089
G1 X96.047 Y131.162 E15.45107
G1 X94.128 Y130.546 E15.69281
G1 X91.354 Y129.166 E16.06451
G1 X89.923 Y128.208 E16.27105
G1 X87.359 Y125.965 E16.67963
G1 X86.499 Y125.058 E16.82959
G1 X84.772 Y122.859 E17.16496
G1 X84.260 Y122.106 E17.27428
G1 X82.742 Y119.514 E17.63455
G1 X82.244 Y118.466 E17.77377
G1 X79.957 Y112.329 E18.55938
G1 X79.622 Y111.067 E18.71602
G1 X78.483 Y104.096 E19.56327
G1 X78.396 Y102.932 E19.70324
G1 X78.481 Y95.909 E20.54581
G1 X78.594 Y94.756 E20.68477
G1 X79.848 Y88.049 E21.50324
G1 X80.207 Y86.808 E21.65819
G1 X82.531 Y80.947 E22.41447
G1 X83.046 Y79.916 E22.55267
G1 X84.555 Y77.452 E22.89933
G1 X85.078 Y76.714 E23.00775
G1 X86.742 Y74.674 E23.32357
G1 E20.32357 F2400.00000
G92 E0
G1 X101.013 Y79.612 F6000.000
G1 E3.00000 F2400.00000
G1 X100.000 Y80.032 E3.13156 F1800.000
G1 X98.987 Y79.612 E3.26311
G1 X98.567 Y78.599 E3.39467
G1 X98.987 Y77.585 E3.52622
G1 X99.168 Y77.510 E3.54977
G1 X100.000 Y77.166 E3.65778 F1800.000
G1 X101.013 Y77.585 E3.78933
G1 X101.433 Y78.599 E3.92089
G1 X101.036 Y79.557 E4.04525
G1 X101.065 Y80.009 F6000.000
G1 X100.000 Y115.620 F6000.000
G1 X102.106 Y116.492 E4.31874 F1800.000
G1 X102.979 Y118.599 E4.59223
G1 X102.106 Y120.705 E4.86572
G1 X100.000 Y121.578 E5.13921
G1 X97.894 Y120.705 E5.41270
G1 X97.021 Y118.599 E5.68620
G1 X97.894 Y116.492 E5.95969
G1 X98.622 Y116.191 E6.05420
G1 X99.945 Y115.643 E6.22598 F1800.000
G1 X100.000 Y116.393 F6000.000
G1 X101.560 Y117.039 E6.42850 F1800.000
G1 X102.206 Y118.599 E6.63103
G1 X101.560 Y120.159 E6.83355
G1 X100.000 Y120.805 E7.03607
G1 X98.440 Y120.159 E7.23860
G1 X97.794 Y118.599 E7.44112
G1 X98.440 Y117.039 E7.64365
G1 X98.895 Y116.851 E7.70268
G1 X99.945 Y116.416 E7.83897 F1800.000
G1 X100.000 Y117.166 F6000.000
G1 X101.013 Y117.585 E7.97053 F1800.000
G1 X101.433 Y118.599 E8.10208
G1 X101.013 Y119.612 E8.23364
G1 X100.000 Y120.032 E8.36520
G1 X98.987 Y119.612 E8.49675
G1 X98.567 Y118.599 E8.62831
G1 X98.987 Y117.585 E8.75986
G1 X99.168 Y117.510 E8.78341
G1 X99.945 Y117.189 E8.88422 F1800.000
G1 X100.244 Y116.848 F6000.000
G1 X97.561 Y77.295 F6000.000
G1 X97.021 Y78.599 E9.05352 F1800.000
G1 X97.894 Y80.705 E9.32701
G1 X100.000 Y81.578 E9.60050
G1 X102.106 Y80.705 E9.87399
G1 X102.979 Y78.599 E10.14748
G1 X102.435 Y77.285 E10.31800
G1 X104.631 Y78.377 E10.61215
G1 X106.888 Y80.352 E10.97187
G1 X108.432 Y82.319 E11.27182
G1 X109.807 Y84.666 E11.59816
G1 X111.976 Y90.487 E12.34330
G1 X113.061 Y97.124 E13.14998
G1 X112.979 Y103.830 E13.95444
G1 X111.787 Y110.208 E14.73272
G1 X109.586 Y115.758 E15.44891
G1 X108.224 Y117.983 E15.76188
G1 X106.707 Y119.843 E16.04983
G1 X104.503 Y121.709 E16.39617
G1 X102.252 Y122.796 E16.69604
G1 X100.004 Y123.149 E16.96895
G1 X97.684 Y122.774 E17.25089
G1 X95.369 Y121.623 E17.56094
G1 X93.112 Y119.648 E17.92067
G1 X91.568 Y117.681 E18.22061
G1 X90.193 Y115.334 E18.54695
G1 X88.024 Y109.513 E19.29210
G1 X86.939 Y102.876 E20.09877
G1 X87.021 Y96.170 E20.90323
G1 X88.213 Y89.792 E21.68151
G1 X90.414 Y84.242 E22.39770
G1 X91.776 Y82.017 E22.71067
G1 X93.293 Y80.157 E22.99862
G1 X95.497 Y78.291 E23.34496
G1 X97.507 Y77.321 E23.61270
G1 X99.543 Y76.582 F6000.000
G1 X98.440 Y77.039 E23.75588 F1800.000
G1 X97.794 Y78.599 E23.95840
G1 X98.440 Y80.159 E24.16093
G1 X100.000 Y80.805 E24.36345
G1 X101.560 Y80.159 E24.56597
G1 X102.206 Y78.599 E24.76850
G1 X101.560 Y77.039 E24.97102
G1 X100.473 Y76.589 E25.11210
G1 X100.577 Y76.222 E25.15785
G1 X102.537 Y76.539 E25.39599
G1 X105.031 Y77.779 E25.73013
G1 X107.408 Y79.858 E26.10894
G1 X109.024 Y81.916 E26.42272
G1 X110.454 Y84.359 E26.76231
G1 X112.670 Y90.303 E27.52326
G1 X113.775 Y97.070 E28.34579
G1 X113.693 Y103.900 E29.16513
G1 X112.476 Y110.407 E29.95911
G1 X110.227 Y116.078 E30.69096
G1 X108.808 Y118.397 E31.01709
G1 X107.219 Y120.346 E31.31873
G1 X104.895 Y122.312 E31.68387
G1 X102.467 Y123.485 E32.00730
G1 X100.002 Y123.872 E32.30654
G1 X97.463 Y123.461 E32.61514
G1 X94.969 Y122.221 E32.94927
G1 X92.592 Y120.142 E33.32808
G1 X90.976 Y118.084 E33.64186
G1 X89.546 Y115.641 E33.98146
G1 X87.330 Y109.697 E34.74241
G1 X86.225 Y102.930 E35.56493
G1 X86.307 Y96.100 E36.38427
G1 X87.524 Y89.593 E37.17825
G1 X89.773 Y83.922 E37.91010
G1 X91.192 Y81.603 E38.23623
G1 X92.781 Y79.654 E38.53787
G1 X95.105 Y77.688 E38.90301
G1 X97.533 Y76.515 E39.22644
G1 X99.440 Y76.216 E39.45797
G1 X99.527 Y76.524 E39.49642
G1 X99.373 Y75.503 F6000.000
G1 X99.999 Y75.405 E39.57239 F1800.000
G1 X100.051 Y75.413 E39.57875
G1 X102.758 Y75.851 E39.90764 F1800.000
G1 X105.432 Y77.181 E40.26585
G1 X107.929 Y79.365 E40.66375
G1 X109.615 Y81.513 E40.99137
G1 X111.102 Y84.051 E41.34422
G1 X113.363 Y90.119 E42.12097
G1 X114.490 Y97.017 E42.95934
G1 X114.406 Y103.971 E43.79357
G1 X113.166 Y110.606 E44.60325
G1 X110.869 Y116.399 E45.35075
G1 X109.392 Y118.811 E45.69004
G1 X107.730 Y120.848 E46.00538
G1 X105.287 Y122.916 E46.38932
G1 X102.682 Y124.174 E46.73630
G1 X100.001 Y124.595 E47.06188
G1 X97.242 Y124.149 E47.39713
G1 X94.568 Y122.819 E47.75535
G1 X92.071 Y120.635 E48.15324
G1 X90.385 Y118.487 E48.48086
G1 X88.898 Y115.949 E48.83371
G1 X86.637 Y109.881 E49.61047
G1 X85.510 Y102.983 E50.44883
G1 X85.594 Y96.029 E51.28307
G1 X86.834 Y89.394 E52.09274
G1 X89.131 Y83.601 E52.84025
G1 X90.608 Y81.189 E53.17953
G1 X92.270 Y79.152 E53.49487
G1 X94.713 Y77.084 E53.87881
G1 X97.318 Y75.826 E54.22580
G1 X99.314 Y75.513 E54.46821
G1 X99.625 Y75.814 F6000.000
G1 X95.956 Y78.497 F6000.000
G1 X96.770 Y79.311 E54.60862 F1800.000
G1 X99.288 Y81.829 F6000.000
G1 X112.204 Y94.746 E56.83659 F1800.000
G1 X112.404 Y95.973 E56.98829
G1 X95.343 Y78.911 E59.93133
G1 X94.786 Y79.382 E60.02020
G1 X112.605 Y97.201 E63.09377
G1 X112.613 Y98.236 E63.22005
G1 X94.230 Y79.853 E66.39100
G1 X93.680 Y80.329 E66.47980
G1 X112.601 Y99.251 E69.74360
G1 X112.589 Y100.265 E69.86737
G1 X93.194 Y80.870 E73.21289
G1 X92.732 Y81.436 E73.30191
G1 X112.577 Y101.280 E76.72488
G1 X112.564 Y102.295 E76.84865
G1 X92.271 Y82.002 E80.34906
G1 X91.855 Y82.613 E80.43923
G1 X112.552 Y103.309 E84.00923
G1 X112.481 Y104.265 E84.12612
G1 X91.465 Y83.250 E87.75110
G1 X91.076 Y83.887 E87.84219
G1 X112.319 Y105.130 E91.50653
G1 X112.157 Y105.995 E91.61389
G1 X90.712 Y84.550 E95.31308
G1 X90.420 Y85.285 E95.40956
G1 X111.995 Y106.861 E99.13115
G1 X111.834 Y107.726 E99.23850
G1 X90.129 Y86.021 E102.98248
G1 X89.837 Y86.756 E103.07897
G1 X111.672 Y108.591 E106.84535
G1 X111.510 Y109.456 E106.95271
G1 X89.545 Y87.491 E110.74148
G1 X89.254 Y88.227 E110.83797
G1 X111.330 Y110.303 E114.64588
G1 X111.038 Y111.038 E114.74236
G1 X88.962 Y88.962 E118.55027
G1 X88.670 Y89.697 E118.64676
G1 X110.746 Y111.773 E122.45467
G1 X110.455 Y112.509 E122.55116
G1 X88.490 Y90.544 E126.33993
G1 X88.328 Y91.409 E126.44729
G1 X110.163 Y113.244 E130.21366
G1 X109.871 Y113.979 E130.31015
G1 X88.166 Y92.274 E134.05413
G1 X88.005 Y93.139 E134.16149
G1 X109.580 Y114.715 E137.88307
G1 X109.288 Y115.450 E137.97956
G1 X87.843 Y94.005 E141.67874
G1 X87.681 Y94.870 E141.78610
G1 X108.924 Y116.113 E145.45044
G1 X108.534 Y116.750 E145.54154
G1 X87.519 Y95.735 E149.16651
G1 X87.448 Y96.691 E149.28340
G1 X108.145 Y117.387 E152.85340
G1 X107.729 Y117.998 E152.94357
G1 X87.436 Y97.705 E156.44398
G1 X87.423 Y98.720 E156.56775
G1 X107.268 Y118.564 E159.99071
G1 X106.806 Y119.130 E160.07974
G1 X87.411 Y99.735 E163.42525
G1 X87.399 Y100.749 E163.54902
G1 X106.320 Y119.671 E166.81282
G1 X105.770 Y120.147 E166.90162
G1 X103.034 Y117.411 E167.37357
G1 X103.340 Y118.744 E167.54040
G1 X105.214 Y120.618 E167.86360
G1 X104.657 Y121.089 E167.95248
G1 X103.039 Y119.470 E168.23162
G1 X102.738 Y120.197 E168.32749
G1 X104.044 Y121.503 E168.55281
G1 X103.352 Y121.837 E168.64662
G1 X102.437 Y120.923 E168.80435
G1 X101.758 Y121.271 E168.89742
G1 X102.659 Y122.172 E169.05285
G1 X101.894 Y122.433 E169.15152
G1 X101.326 Y121.865 E169.24948
G1 X98.617 Y122.237 F6000.000
G1 X90.137 Y113.757 E170.71224 F1800.000
G1 X89.527 Y112.120 F6000.000
G1 X96.806 Y119.399 E171.96787 F1800.000
G1 X96.727 Y118.293 E172.10316
G1 X88.917 Y110.483 E173.45034
G1 X88.398 Y108.937 F6000.000
G1 X97.027 Y117.567 E174.93891 F1800.000
G1 X97.328 Y116.840 E175.03478
G1 X88.197 Y107.709 E176.60982
G1 X87.997 Y106.482 E176.76152
G1 X97.676 Y116.161 E178.43114
G1 X98.402 Y115.860 E178.52701
G1 X87.796 Y105.254 E180.35648
G1 X87.596 Y104.027 E180.50818
G1 X99.128 Y115.560 E182.49749
G1 X99.854 Y115.259 E182.59336
G1 X87.395 Y102.799 E184.74253
G1 X87.387 Y101.764 E184.86881
G1 X101.188 Y115.565 E187.24937
G1 X94.429 Y115.429 F6000.000
G1 X95.588 Y119.564 F6000.000
G1 X96.619 Y120.862 F6000.000
G1 X97.833 Y121.747 F6000.000
G1 X97.412 Y122.059 F6000.000
G1 X90.986 Y115.633 E188.35785 F1800.000
G1 X93.285 Y118.959 F6000.000
G1 X93.918 Y119.592 E188.46709 F1800.000
G1 X111.602 Y91.063 F6000.000
G1 X101.795 Y81.255 E190.15884 F1800.000
G1 X101.069 Y81.556 E190.25471
G1 X111.803 Y92.291 E192.10631
G1 X112.003 Y93.518 E192.25801
G1 X100.342 Y81.857 E194.26946
G1 X103.054 Y79.434 F6000.000
G1 X109.863 Y86.243 E195.44399 F1800.000
G1 X110.473 Y87.880 F6000.000
G1 X102.753 Y80.160 E196.77564 F1800.000
G1 X102.453 Y80.886 E196.87151
G1 X111.083 Y89.517 E198.36028
G1 X109.015 Y84.367 F6000.000
G1 X103.355 Y78.708 E199.33652 F1800.000
G1 X106.082 Y80.408 F6000.000
G1 X106.715 Y81.041 E199.44579 F1800.000
G1 X100.901 Y122.136 F6000.000
G1 X100.006 Y122.373 E199.68132 F1800.000
G1 X99.843 Y122.344 E199.72347
G1 X99.065 Y122.124 E199.92908
G1 Z0.700 F6000.000
G1 E196.92908 F2400.00000
G92 E0
G1 X100.000 Y116.521 F6000.000
G1 E3.00000 F2400.00000
G1 X101.469 Y117.129 E3.08393 F900.000
G1 X102.078 Y118.599 E3.16786
G1 X101.470 Y120.068 E3.25179
G1 X100.000 Y120.677 E3.33572
G1 X98.530 Y120.068 E3.41965
G1 X97.922 Y118.599 E3.50358
G1 X98.530 Y117.129 E3.58751
G1 X98.989 Y116.939 E3.61373
G1 X99.945 Y116.544 E3.66828 F900.000
G1 X100.000 Y116.974 F6000.000
G1 X101.149 Y117.450 E3.73390 F900.000
G1 X101.625 Y118.599 E3.79952
G1 X101.149 Y119.748 E3.86514
G1 X100.000 Y120.224 E3.93076
G1 X98.851 Y119.748 E3.99638
G1 X98.375 Y118.599 E4.06200
G1 X98.851 Y117.450 E4.12762
G1 X99.150 Y117.326 E4.14468
G1 X99.945 Y116.997 E4.19007 F900.000
G1 X100.000 Y117.382 F6000.000
G1 X100.860 Y117.739 E4.22943 F900.000
G1 X101.216 Y118.599 E4.26880
G1 X100.860 Y119.459 E4.30816
G1 X100.000 Y119.815 E4.34753
G1 X99.140 Y119.459 E4.38689
G1 X98.784 Y118.599 E4.42625
G1 X99.140 Y117.739 E4.46562
G1 X99.294 Y117.675 E4.47268
G1 X99.945 Y117.405 E4.50244 F900.000
G1 X100.244 Y117.065 F6000.000
G1 X100.000 Y80.677 F6000.000
G1 X98.530 Y80.068 E4.58637 F900.000
G1 X97.922 Y78.599 E4.67030
G1 X98.530 Y77.129 E4.75424
G1 X98.989 Y76.939 E4.78045
G1 X100.000 Y76.521 E4.83817 F900.000
G1 X101.469 Y77.129 E4.92210
G1 X102.078 Y78.599 E5.00603
G1 X101.469 Y80.068 E5.08996
G1 X100.055 Y80.654 E5.17072
G1 X100.000 Y80.224 F6000.000
G1 X98.851 Y79.748 E5.23634 F900.000
G1 X98.375 Y78.599 E5.30196
G1 X98.851 Y77.450 E5.36758
G1 X99.150 Y77.326 E5.38464
G1 X100.000 Y76.974 E5.43320 F900.000
G1 X101.149 Y77.450 E5.49882
G1 X101.625 Y78.599 E5.56444
G1 X101.149 Y79.748 E5.63006
G1 X100.055 Y80.201 E5.69251
G1 X100.000 Y79.815 F6000.000
G1 X99.140 Y79.459 E5.73188 F900.000
G1 X98.784 Y78.599 E5.77124
G1 X99.140 Y77.739 E5.81061
G1 X99.294 Y77.675 E5.81767
G1 X100.000 Y77.382 E5.84997 F900.000
G1 X100.860 Y77.739 E5.88933
G1 X101.216 Y78.599 E5.92870
G1 X100.860 Y79.459 E5.96806
G1 X100.055 Y79.792 E6.00489
G1 X99.756 Y80.133 F6000.000
G1 E3.00489 F2400.00000
G92 E0
G1 X101.472 Y77.126 F6000.000
G1 X101.640 Y76.722 F6000.000
G1 X100.117 Y76.289 F6000.000
G1 X100.157 Y76.038 F6000.000
G1 X100.599 Y76.106 F6000.000
G1 E3.00000 F2400.00000
G1 X102.574 Y76.425 E3.10553 F3000.000
G1 X105.098 Y77.680 E3.25426
G1 X107.494 Y79.777 E3.42229
G1 X109.122 Y81.849 E3.56133
G1 X110.562 Y84.308 E3.71168
G1 X112.784 Y90.273 E4.04757
G1 X113.894 Y97.061 E4.41055
G1 X113.811 Y103.912 E4.77207
G1 X112.590 Y110.440 E5.12248
G1 X110.333 Y116.131 E5.44556
G1 X108.904 Y118.465 E5.58998
G1 X107.303 Y120.429 E5.72367
G1 X104.960 Y122.412 E5.88566
G1 X102.503 Y123.599 E6.02965
G1 X100.002 Y123.991 E6.16320
G1 X97.426 Y123.575 E6.30089
G1 X94.902 Y122.320 E6.44963
G1 X92.506 Y120.223 E6.61765
G1 X90.878 Y118.151 E6.75669
G1 X89.438 Y115.692 E6.90704
G1 X87.216 Y109.727 E7.24293
G1 X86.106 Y102.939 E7.60591
G1 X86.189 Y96.088 E7.96743
G1 X87.410 Y89.560 E8.31784
G1 X89.667 Y83.869 E8.64092
G1 X91.096 Y81.535 E8.78534
G1 X92.697 Y79.571 E8.91903
G1 X95.040 Y77.588 E9.08102
G1 X97.497 Y76.401 E9.22501
G1 X99.998 Y76.009 E9.35856
G1 X100.158 Y76.035 E9.36713
G1 X100.540 Y76.096 E9.38756 F3000.000
G1 X100.666 Y75.692 F6000.000
G1 X102.703 Y76.022 E9.49644 F3000.000
G1 X105.333 Y77.329 E9.65139
G1 X107.800 Y79.487 E9.82434
G1 X109.469 Y81.613 E9.96695
G1 X110.941 Y84.127 E10.12072
G1 X113.191 Y90.165 E10.46069
G1 X114.313 Y97.030 E10.82776
G1 X114.229 Y103.953 E11.19311
G1 X112.995 Y110.556 E11.54758
G1 X110.709 Y116.319 E11.87470
G1 X109.247 Y118.708 E12.02251
G1 X107.603 Y120.724 E12.15974
G1 X105.190 Y122.766 E12.32658
G1 X102.629 Y124.003 E12.47664
G1 X100.001 Y124.415 E12.61699
G1 X97.297 Y123.978 E12.76156
G1 X94.667 Y122.671 E12.91651
G1 X92.200 Y120.513 E13.08946
G1 X90.531 Y118.387 E13.23207
G1 X89.059 Y115.873 E13.38584
G1 X86.809 Y109.835 E13.72581
G1 X85.687 Y102.970 E14.09288
G1 X85.771 Y96.047 E14.45823
G1 X87.005 Y89.444 E14.81270
G1 X89.291 Y83.681 E15.13981
G1 X90.753 Y81.292 E15.28763
G1 X92.397 Y79.276 E15.42485
G1 X94.810 Y77.234 E15.59169
G1 X97.371 Y75.997 E15.74176
G1 X99.999 Y75.585 E15.88211
G1 X100.225 Y75.621 E15.89420
G1 X100.607 Y75.683 E15.91463 F3000.000
G1 X100.726 Y75.320 F6000.000
G1 X102.820 Y75.658 E16.00429 F1500.000
G1 X105.544 Y77.013 E16.13292
G1 X108.074 Y79.226 E16.27505
G1 X109.781 Y81.400 E16.39189
G1 X111.283 Y83.965 E16.51756
G1 X113.558 Y90.067 E16.79290
G1 X114.690 Y97.002 E17.08996
G1 X114.606 Y103.991 E17.38546
G1 X113.359 Y110.662 E17.67239
G1 X111.048 Y116.488 E17.93741
G1 X109.555 Y118.927 E18.05829
G1 X107.874 Y120.989 E18.17079
G1 X105.397 Y123.085 E18.30797
G1 X102.743 Y124.367 E18.43259
G1 X100.000 Y124.797 E18.54995
G1 X97.180 Y124.342 E18.67074
G1 X94.456 Y122.987 E18.79937
G1 X91.926 Y120.774 E18.94150
G1 X90.219 Y118.600 E19.05834
G1 X88.717 Y116.035 E19.18402
G1 X86.442 Y109.933 E19.45935
G1 X85.310 Y102.998 E19.75641
