; generated by Slic3r 1.2.9 on 2018-02-02 at 04:31:41

; external perimeters extrusion width = 0.40mm
; perimeters extrusion width = 0.48mm
; infill extrusion width = 0.48mm
; solid infill extrusion width = 0.48mm
; top infill extrusion width = 0.48mm

M107
M104 S200 ; set temperature
G92 ; home all axes
G1 Z5 F5000 ; lift nozzle

M109 S200 ; wait for temperature to be reached
G21 ; set units to millimeters
G90 ; use absolute coordinates
M82 ; use absolute distances for extrusion
G92 E0
G1 Z0.400 F6000.000
G1 E-3.00000 F2400.00000
G92 E0
G1 X69.827 Y70.720 F6000.000
G1 E3.00000 F2400.00000
G1 X71.583 Y69.220 E3.27697 F1800.000
G1 X73.743 Y68.405 E3.55393
G1 X75.000 Y68.286 E3.70540
G1 X125.000 Y68.286 E9.70304
G1 X127.275 Y68.683 E9.98001
G1 X129.280 Y69.827 E10.25698 F1800.000
G1 X130.780 Y71.583 E10.53394
G1 X131.595 Y73.743 E10.81091
G1 X131.714 Y75.000 E10.96238
G1 X131.714 Y125.000 E16.96002
G1 X131.317 Y127.275 E17.23698
G1 X130.173 Y129.280 E17.51395
G1 X128.417 Y130.780 E17.79092
G1 X126.257 Y131.595 E18.06789
G1 X125.000 Y131.714 E18.21935
G1 X75.000 Y131.714 E24.21699
G1 X72.725 Y131.317 E24.49396
G1 X70.720 Y130.173 E24.77093
G1 X69.220 Y128.417 E25.04789
G1 X68.405 Y126.257 E25.32486
G1 X68.286 Y125.000 E25.47633
G1 X68.286 Y75.000 E31.47397
G1 X68.683 Y72.725 E31.75094
G1 X69.797 Y70.772 E32.02071
G1 E29.02071 F2400.00000
G92 E0
G1 X123.172 Y123.172 F6000.000
G1 E3.00000 F2400.00000
G1 X76.828 Y123.172 E8.55902 F1800.000
G1 X76.828 Y76.828 E14.11803
G1 X123.172 Y76.828 E19.67705
G1 X123.172 Y123.112 E25.22887
G1 X123.886 Y123.886 F6000.000
G1 X76.114 Y123.886 E30.95922 F1800.000
G1 X76.114 Y76.114 E36.68957
G1 X123.886 Y76.114 E42.41992
G1 X123.886 Y123.826 E48.14307
G1 X124.600 Y124.600 F6000.000
G1 X75.400 Y124.600 E54.04475 F1800.000
G1 X75.400 Y75.400 E59.94643
G1 X124.600 Y75.400 E65.84811
G1 X124.600 Y124.540 E71.74259
G1 X124.254 Y124.400 F6000.000
G1 X122.736 Y77.607 F6000.000
G1 X122.393 Y77.264 E71.80101 F1800.000
G1 X121.379 Y77.264 E71.92316
G1 X122.736 Y78.621 E72.15434
G1 X122.736 Y79.635 E72.27649
G1 X120.365 Y77.264 E72.68041
G1 X119.351 Y77.264 E72.80256
G1 X122.736 Y80.649 E73.37923
G1 X122.736 Y81.663 E73.50138
G1 X118.337 Y77.264 E74.25080
G1 X117.322 Y77.264 E74.37295
G1 X122.736 Y82.678 E75.29512
G1 X122.736 Y83.692 E75.41727
G1 X116.308 Y77.264 E76.51218
G1 X115.294 Y77.264 E76.63433
G1 X122.736 Y84.706 E77.90200
G1 X122.736 Y85.720 E78.02415
G1 X114.280 Y77.264 E79.46456
G1 X113.266 Y77.264 E79.58671
G1 X122.736 Y86.734 E81.19987
G1 X122.736 Y87.748 E81.32202
G1 X112.252 Y77.264 E83.10793
G1 X111.238 Y77.264 E83.23008
G1 X122.736 Y88.762 E85.18874
G1 X122.736 Y89.777 E85.31089
G1 X110.223 Y77.264 E87.44229
G1 X109.209 Y77.264 E87.56444
G1 X122.736 Y90.791 E89.86859
G1 X122.736 Y91.805 E89.99075
G1 X108.195 Y77.264 E92.46765
G1 X107.181 Y77.264 E92.58980
G1 X122.736 Y92.819 E95.23944
G1 X122.736 Y93.833 E95.36160
G1 X106.167 Y77.264 E98.18399
G1 X105.153 Y77.264 E98.30614
G1 X122.736 Y94.847 E101.30129
G1 X122.736 Y95.861 E101.42344
G1 X104.139 Y77.264 E104.59133
G1 X103.124 Y77.264 E104.71348
G1 X122.736 Y96.876 E108.05413
G1 X122.736 Y97.890 E108.17628
G1 X102.110 Y77.264 E111.68967
G1 X101.096 Y77.264 E111.81182
G1 X122.736 Y98.904 E115.49796
G1 X122.736 Y99.918 E115.62011
G1 X100.082 Y77.264 E119.47899
G1 X99.068 Y77.264 E119.60114
G1 X122.736 Y100.932 E123.63278
G1 X122.736 Y101.946 E123.75493
G1 X98.054 Y77.264 E127.95931
G1 X97.040 Y77.264 E128.08146
G1 X122.736 Y102.960 E132.45859
G1 X122.736 Y103.975 E132.58074
G1 X96.025 Y77.264 E137.13062
G1 X95.011 Y77.264 E137.25277
G1 X122.736 Y104.989 E141.97540
G1 X122.736 Y106.003 E142.09755
G1 X93.997 Y77.264 E146.99293
G1 X92.983 Y77.264 E147.11508
G1 X122.736 Y107.017 E152.18320
G1 X122.736 Y108.031 E152.30535
G1 X91.969 Y77.264 E157.54622
G1 X90.955 Y77.264 E157.66838
G1 X122.736 Y109.045 E163.08200
G1 X122.736 Y110.059 E163.20415
G1 X89.941 Y77.264 E168.79051
G1 X88.926 Y77.264 E168.91267
G1 X122.736 Y111.074 E174.67178
G1 X122.736 Y112.088 E174.79393
G1 X87.912 Y77.264 E180.72580
G1 X86.898 Y77.264 E180.84795
G1 X122.736 Y113.102 E186.95256
G1 X122.736 Y114.116 E187.07471
G1 X85.884 Y77.264 E193.35207
G1 X84.870 Y77.264 E193.47422
G1 X122.736 Y115.130 E199.92433
G1 X122.736 Y116.144 E200.04648
G1 X83.856 Y77.264 E206.66934
G1 X82.842 Y77.264 E206.79149
G1 X122.736 Y117.158 E213.58710
G1 X122.736 Y118.173 E213.70925
G1 X81.827 Y77.264 E220.67760
G1 X80.813 Y77.264 E220.79975
G1 X122.736 Y119.187 E227.94085
G1 X122.736 Y120.201 E228.06301
G1 X79.799 Y77.264 E235.37686
G1 X78.785 Y77.264 E235.49901
G1 X122.736 Y121.215 E242.98560
G1 X122.736 Y122.229 E243.10776
G1 X77.771 Y77.264 E250.76710
G1 X77.264 Y77.771 E250.85348
G1 X122.229 Y122.736 E258.51282
G1 X121.215 Y122.736 E258.63497
G1 X77.264 Y78.785 E266.12156
G1 X77.264 Y79.799 E266.24371
G1 X120.201 Y122.736 E273.55756
G1 X119.187 Y122.736 E273.67971
G1 X77.264 Y80.813 E280.82080
G1 X77.264 Y81.827 E280.94296
G1 X118.173 Y122.736 E287.91130
G1 X117.158 Y122.736 E288.03345
G1 X77.264 Y82.842 E294.82905
G1 X77.264 Y83.856 E294.95121
G1 X116.144 Y122.736 E301.57406
G1 X115.130 Y122.736 E301.69621
G1 X77.264 Y84.870 E308.14631
G1 X77.264 Y85.884 E308.26846
G1 X114.116 Y122.736 E314.54582
G1 X113.102 Y122.736 E314.66797
G1 X77.264 Y86.898 E320.77258
G1 X77.264 Y87.912 E320.89473
G1 X112.088 Y122.736 E326.82659
G1 X111.074 Y122.736 E326.94874
G1 X77.264 Y88.926 E332.70785
G1 X77.264 Y89.941 E332.83000
G1 X110.059 Y122.736 E338.41636
G1 X109.045 Y122.736 E338.53851
G1 X77.264 Y90.955 E343.95213
G1 X77.264 Y91.969 E344.07428
G1 X108.031 Y122.736 E349.31514
G1 X107.017 Y122.736 E349.43730
G1 X77.264 Y92.983 E354.50541
G1 X77.264 Y93.997 E354.62757
G1 X106.003 Y122.736 E359.52293
G1 X104.989 Y122.736 E359.64509
G1 X77.264 Y95.011 E364.36771
G1 X77.264 Y96.025 E364.48986
G1 X103.975 Y122.736 E369.03973
G1 X102.960 Y122.736 E369.16188
G1 X77.264 Y97.040 E373.53901
G1 X77.264 Y98.054 E373.66116
G1 X101.946 Y122.736 E377.86554
G1 X100.932 Y122.736 E377.98769
G1 X77.264 Y99.068 E382.01932
G1 X77.264 Y100.082 E382.14147
G1 X99.918 Y122.736 E386.00035
G1 X98.904 Y122.736 E386.12250
G1 X77.264 Y101.096 E389.80863
G1 X77.264 Y102.110 E389.93078
G1 X97.890 Y122.736 E393.44417
G1 X96.876 Y122.736 E393.56632
G1 X77.264 Y103.124 E396.90695
G1 X77.264 Y104.139 E397.02910
G1 X95.861 Y122.736 E400.19699
G1 X94.847 Y122.736 E400.31914
G1 X77.264 Y105.153 E403.31428
G1 X77.264 Y106.167 E403.43643
G1 X93.833 Y122.736 E406.25882
G1 X92.819 Y122.736 E406.38098
G1 X77.264 Y107.181 E409.03062
G1 X77.264 Y108.195 E409.15277
G1 X91.805 Y122.736 E411.62966
G1 X90.791 Y122.736 E411.75182
G1 X77.264 Y109.209 E414.05596
G1 X77.264 Y110.223 E414.17811
G1 X89.777 Y122.736 E416.30951
G1 X88.762 Y122.736 E416.43166
G1 X77.264 Y111.238 E418.39031
G1 X77.264 Y112.252 E418.51246
G1 X87.748 Y122.736 E420.29837
G1 X86.734 Y122.736 E420.42052
G1 X77.264 Y113.266 E422.03367
G1 X77.264 Y114.280 E422.15582
G1 X85.720 Y122.736 E423.59623
G1 X84.706 Y122.736 E423.71838
G1 X77.264 Y115.294 E424.98604
G1 X77.264 Y116.308 E425.10819
G1 X83.692 Y122.736 E426.20310
G1 X82.678 Y122.736 E426.32525
G1 X77.264 Y117.322 E427.24741
G1 X77.264 Y118.337 E427.36956
G1 X81.663 Y122.736 E428.11897
G1 X80.649 Y122.736 E428.24112
G1 X77.264 Y119.351 E428.81779
G1 X77.264 Y120.365 E428.93994
G1 X79.635 Y122.736 E429.34385
G1 X78.621 Y122.736 E429.46601
G1 X77.264 Y121.379 E429.69717
G1 X77.264 Y122.393 E429.81932
G1 X77.607 Y122.736 E429.87774
G1 Z0.700 F6000.000
G1 X124.004 Y124.004 F6000.000
G1 X75.996 Y124.004 E432.41099 F3000.000
G1 X75.996 Y75.996 E434.94423
G1 X124.004 Y75.996 E437.47747
G1 X124.004 Y123.944 E440.00754
G1 X124.423 Y124.423 F6000.000
G1 X75.577 Y124.423 E442.58499 F3000.000
G1 X75.577 Y75.577 E445.16244
G1 X124.423 Y75.577 E447.73989
G1 X124.423 Y124.363 E450.31417
G1 X124.800 Y124.800 F6000.000
G1 X75.200 Y124.800 E452.41120 F1500.000
G1 X75.200 Y75.200 E454.50824
G1 X124.800 Y75.200 E456.60527
G1 X124.800 Y124.740 E458.69977
G1 X124.454 Y124.600 F6000.000
G1 X123.539 Y123.757 F6000.000
G1 X123.757 Y123.539 E458.71608 F1200.000
G1 X123.757 Y122.944 E458.74761
G1 X122.944 Y123.757 E458.80851
G1 X122.349 Y123.757 E458.84004
G1 X123.757 Y122.349 E458.94552
G1 X123.757 Y121.754 E458.97705
G1 X121.754 Y123.757 E459.12712
G1 X121.159 Y123.757 E459.15864
G1 X123.757 Y121.159 E459.35330
G1 X123.757 Y120.564 E459.38483
G1 X120.564 Y123.757 E459.62406
G1 X119.969 Y123.757 E459.65559
G1 X123.757 Y119.969 E459.93942
G1 X123.757 Y119.375 E459.97094
G1 X119.375 Y123.757 E460.29935
G1 X118.780 Y123.757 E460.33088
G1 X123.757 Y118.780 E460.70387
G1 X123.757 Y118.185 E460.73540
G1 X118.185 Y123.757 E461.15297
G1 X117.590 Y123.757 E461.18450
G1 X123.757 Y117.590 E461.64666
G1 X123.757 Y116.995 E461.67819
G1 X116.995 Y123.757 E462.18494
G1 X116.400 Y123.757 E462.21646
G1 X123.757 Y116.400 E462.76780
G1 X123.757 Y115.805 E462.79932
G1 X115.805 Y123.757 E463.39524
G1 X115.210 Y123.757 E463.42676
G1 X123.757 Y115.210 E464.06727
G1 X123.757 Y114.615 E464.09879
G1 X114.615 Y123.757 E464.78388
G1 X114.020 Y123.757 E464.81540
G1 X123.757 Y114.020 E465.54508
G1 X123.757 Y113.425 E465.57660
G1 X113.425 Y123.757 E466.35086
G1 X112.831 Y123.757 E466.38238
G1 X123.757 Y112.831 E467.20122
G1 X123.757 Y112.236 E467.23275
G1 X112.236 Y123.757 E468.09617
G1 X111.641 Y123.757 E468.12770
G1 X123.757 Y111.641 E469.03571
G1 X123.757 Y111.046 E469.06724
G1 X111.046 Y123.757 E470.01983
G1 X110.451 Y123.757 E470.05136
G1 X123.757 Y110.451 E471.04854
G1 X123.757 Y109.856 E471.08006
G1 X109.856 Y123.757 E472.12183
G1 X109.261 Y123.757 E472.15335
G1 X123.757 Y109.261 E473.23970
G1 X123.757 Y108.666 E473.27123
G1 X108.666 Y123.757 E474.40216
G1 X108.071 Y123.757 E474.43368
G1 X123.757 Y108.071 E475.60920
G1 X123.757 Y107.476 E475.64073
G1 X107.476 Y123.757 E476.86083
G1 X106.881 Y123.757 E476.89236
G1 X123.757 Y106.881 E478.15704
G1 X123.757 Y106.286 E478.18857
G1 X106.286 Y123.757 E479.49784
G1 X105.692 Y123.757 E479.52937
G1 X123.757 Y105.692 E480.88322
G1 X123.757 Y105.097 E480.91475
G1 X105.097 Y123.757 E482.31319
G1 X104.502 Y123.757 E482.34472
G1 X123.757 Y104.502 E483.78774
G1 X123.757 Y103.907 E483.81927
G1 X103.907 Y123.757 E485.30688
G1 X103.312 Y123.757 E485.33841
G1 X123.757 Y103.312 E486.87060
G1 X123.757 Y102.717 E486.90213
G1 X102.717 Y123.757 E488.47891
G1 X102.122 Y123.757 E488.51043
G1 X123.757 Y102.122 E490.13180
G1 X123.757 Y101.527 E490.16332
G1 X101.527 Y123.757 E491.82927
G1 X100.932 Y123.757 E491.86080
G1 X123.757 Y100.932 E493.57133
G1 X123.757 Y100.337 E493.60286
G1 X100.337 Y123.757 E495.35797
G1 X99.742 Y123.757 E495.38950
G1 X123.757 Y99.742 E497.18920
G1 X123.757 Y99.147 E497.22073
G1 X99.147 Y123.757 E499.06502
G1 X98.553 Y123.757 E499.09654
G1 X123.757 Y98.553 E500.98542
G1 X123.757 Y97.958 E501.01694
G1 X97.958 Y123.757 E502.95040
G1 X97.363 Y123.757 E502.98192
G1 X123.757 Y97.363 E504.95997
G1 X123.757 Y96.768 E504.99149
G1 X96.768 Y123.757 E507.01412
G1 X96.173 Y123.757 E507.04564
G1 X123.757 Y96.173 E509.11286
G1 X123.757 Y95.578 E509.14438
G1 X95.578 Y123.757 E511.25618
G1 X94.983 Y123.757 E511.28770
G1 X123.757 Y94.983 E513.44408
G1 X123.757 Y94.388 E513.47561
G1 X94.388 Y123.757 E515.67657
G1 X93.793 Y123.757 E515.70810
G1 X123.757 Y93.793 E517.95365
G1 X123.757 Y93.198 E517.98518
G1 X93.198 Y123.757 E520.27531
G1 X92.603 Y123.757 E520.30684
G1 X123.757 Y92.603 E522.64156
G1 X123.757 Y92.009 E522.67308
G1 X92.009 Y123.757 E525.05238
G1 X91.414 Y123.757 E525.08391
G1 X123.757 Y91.414 E527.50780
G1 X123.757 Y90.819 E527.53933
G1 X90.819 Y123.757 E530.00780
G1 X90.224 Y123.757 E530.03932
G1 X123.757 Y90.224 E532.55238
G1 X123.757 Y89.629 E532.58391
G1 X89.629 Y123.757 E535.14155
G1 X89.034 Y123.757 E535.17308
G1 X123.757 Y89.034 E537.77530
G1 X123.757 Y88.439 E537.80683
G1 X88.439 Y123.757 E540.45364
G1 X87.844 Y123.757 E540.48517
G1 X123.757 Y87.844 E543.17656
G1 X123.757 Y87.249 E543.20809
G1 X87.249 Y123.757 E545.94407
G1 X86.654 Y123.757 E545.97560
G1 X123.757 Y86.654 E548.75616
G1 X123.757 Y86.059 E548.78769
G1 X86.059 Y123.757 E551.61284
G1 X85.464 Y123.757 E551.64436
G1 X123.757 Y85.464 E554.51410
G1 X123.757 Y84.870 E554.54562
G1 X84.870 Y123.757 E557.45994
G1 X84.275 Y123.757 E557.49147
G1 X123.757 Y84.275 E560.45037
G1 X123.757 Y83.680 E560.48190
G1 X83.680 Y123.757 E563.48539
G1 X83.085 Y123.757 E563.51692
G1 X123.757 Y83.085 E566.56499
G1 X123.757 Y82.490 E566.59651
G1 X82.490 Y123.757 E569.68917
G1 X81.895 Y123.757 E569.72070
G1 X123.757 Y81.895 E572.85794
G1 X123.757 Y81.300 E572.88947
G1 X81.300 Y123.757 E576.07130
G1 X80.705 Y123.757 E576.10282
G1 X123.757 Y80.705 E579.32923
G1 X123.757 Y80.110 E579.36076
G1 X80.110 Y123.757 E582.63176
G1 X79.515 Y123.757 E582.66328
G1 X123.757 Y79.515 E585.97886
G1 X123.757 Y78.920 E586.01039
G1 X78.920 Y123.757 E589.37056
G1 X78.325 Y123.757 E589.40208
G1 X123.757 Y78.325 E592.80683
G1 X123.757 Y77.731 E592.83836
G1 X77.731 Y123.757 E596.28769
G1 X77.136 Y123.757 E596.31922
G1 X123.757 Y77.136 E599.81314
G1 X123.757 Y76.541 E599.84467
G1 X76.541 Y123.757 E603.38317
G1 X76.243 Y123.459 E603.40546
G1 X123.459 Y76.243 E606.94397
G1 X122.864 Y76.243 E606.97550
G1 X76.243 Y122.864 E610.46942
G1 X76.243 Y122.269 E610.50094
G1 X122.269 Y76.243 E613.95028
G1 X121.674 Y76.243 E613.98180
G1 X76.243 Y121.674 E617.38655
G1 X76.243 Y121.080 E617.41808
G1 X121.080 Y76.243 E620.77825
G1 X120.485 Y76.243 E620.80977
G1 X76.243 Y120.485 E624.12535
G1 X76.243 Y119.890 E624.15688
G1 X119.890 Y76.243 E627.42788
G1 X119.295 Y76.243 E627.45940
G1 X76.243 Y119.295 E630.68581
G1 X76.243 Y118.700 E630.71734
G1 X118.700 Y76.243 E633.89917
G1 X118.105 Y76.243 E633.93069
G1 X76.243 Y118.105 E637.06794
G1 X76.243 Y117.510 E637.09946
G1 X117.510 Y76.243 E640.19212
G1 X116.915 Y76.243 E640.22365
G1 X76.243 Y116.915 E643.27172
G1 X76.243 Y116.320 E643.30325
G1 X116.320 Y76.243 E646.30674
G1 X115.725 Y76.243 E646.33826
G1 X76.243 Y115.725 E649.29717
G1 X76.243 Y115.130 E649.32869
G1 X115.130 Y76.243 E652.24301
G1 X114.536 Y76.243 E652.27454
G1 X76.243 Y114.536 E655.14427
G1 X76.243 Y113.941 E655.17580
G1 X113.941 Y76.243 E658.00095
G1 X113.346 Y76.243 E658.03248
G1 X76.243 Y113.346 E660.81304
G1 X76.243 Y112.751 E660.84457
G1 X112.751 Y76.243 E663.58055
G1 X112.156 Y76.243 E663.61207
G1 X76.243 Y112.156 E666.30347
G1 X76.243 Y111.561 E666.33500
G1 X111.561 Y76.243 E668.98181
G1 X110.966 Y76.243 E669.01333
G1 X76.243 Y110.966 E671.61556
G1 X76.243 Y110.371 E671.64709
G1 X110.371 Y76.243 E674.20473
G1 X109.776 Y76.243 E674.23626
G1 X76.243 Y109.776 E676.74931
G1 X76.243 Y109.181 E676.78084
G1 X109.181 Y76.243 E679.24931
G1 X108.586 Y76.243 E679.28084
G1 X76.243 Y108.586 E681.70473
G1 X76.243 Y107.991 E681.73625
G1 X107.991 Y76.243 E684.11556
G1 X107.397 Y76.243 E684.14708
G1 X76.243 Y107.397 E686.48180
G1 X76.243 Y106.802 E686.51333
G1 X106.802 Y76.243 E688.80346
G1 X106.207 Y76.243 E688.83499
G1 X76.243 Y106.207 E691.08054
G1 X76.243 Y105.612 E691.11206
G1 X105.612 Y76.243 E693.31303
G1 X105.017 Y76.243 E693.34455
G1 X76.243 Y105.017 E695.50093
G1 X76.243 Y104.422 E695.53246
G1 X104.422 Y76.243 E697.64426
G1 X103.827 Y76.243 E697.67578
G1 X76.243 Y103.827 E699.74299
G1 X76.243 Y103.232 E699.77452
G1 X103.232 Y76.243 E701.79714
G1 X102.637 Y76.243 E701.82867
G1 X76.243 Y102.637 E703.80671
G1 X76.243 Y102.042 E703.83824
G1 X102.042 Y76.243 E705.77170
G1 X101.447 Y76.243 E705.80322
G1 X76.243 Y101.447 E707.69209
G1 X76.243 Y100.852 E707.72362
G1 X100.852 Y76.243 E709.56791
G1 X100.258 Y76.243 E709.59943
G1 X76.243 Y100.258 E711.39914
G1 X76.243 Y99.663 E711.43066
G1 X99.663 Y76.243 E713.18578
G1 X99.068 Y76.243 E713.21731
G1 X76.243 Y99.068 E714.92784
G1 X76.243 Y98.473 E714.95937
G1 X98.473 Y76.243 E716.62531
G1 X97.878 Y76.243 E716.65684
G1 X76.243 Y97.878 E718.27821
G1 X76.243 Y97.283 E718.30973
G1 X97.283 Y76.243 E719.88651
G1 X96.688 Y76.243 E719.91804
G1 X76.243 Y96.688 E721.45023
G1 X76.243 Y96.093 E721.48176
G1 X96.093 Y76.243 E722.96937
G1 X95.498 Y76.243 E723.00089
