; generated by Slic3r 1.2.9 on 2018-02-02 at 15:01:29

; external perimeters extrusion width = 0.40mm
; perimeters extrusion width = 0.48mm
; infill extrusion width = 0.48mm
; solid infill extrusion width = 0.48mm
; top infill extrusion width = 0.48mm

M107
M104 S200 ; set temperature
G92 ; home all axes
G1 Z5 F5000 ; lift nozzle

M109 S200 ; wait for temperature to be reached
G21 ; set units to millimeters
G90 ; use absolute coordinates
M82 ; use absolute distances for extrusion
G92 E0
G1 Z0.400 F6000.000
G1 E-3.00000 F2400.00000
G92 E0
G1 X79.827 Y80.720 F6000.000
G1 E3.00000 F2400.00000
G1 X81.583 Y79.220 E3.27697 F1800.000
G1 X83.743 Y78.405 E3.55393
G1 X85.000 Y78.286 E3.70540
G1 X115.000 Y78.286 E7.30399
G1 X117.275 Y78.683 E7.58095
G1 X119.280 Y79.827 E7.85792 F1800.000
G1 X120.780 Y81.583 E8.13489
G1 X121.595 Y83.743 E8.41185
G1 X121.714 Y85.000 E8.56332
G1 X121.714 Y115.000 E12.16190
G1 X121.317 Y117.275 E12.43887
G1 X120.173 Y119.280 E12.71584
G1 X118.417 Y120.780 E12.99281
G1 X116.257 Y121.595 E13.26977
G1 X115.000 Y121.714 E13.42124
G1 X85.000 Y121.714 E17.01982
G1 X82.725 Y121.317 E17.29679
G1 X80.720 Y120.173 E17.57376
G1 X79.220 Y118.417 E17.85072
G1 X78.405 Y116.257 E18.12769
G1 X78.286 Y115.000 E18.27916
G1 X78.286 Y85.000 E21.87774
G1 X78.683 Y82.725 E22.15471
G1 X79.797 Y80.772 E22.42448
G1 E19.42448 F2400.00000
G92 E0
G1 X113.172 Y113.172 F6000.000
G1 E3.00000 F2400.00000
G1 X86.828 Y113.172 E6.15996 F1800.000
G1 X86.828 Y86.828 E9.31993
G1 X113.172 Y86.828 E12.47989
G1 X113.172 Y113.112 E15.63266
G1 X113.886 Y113.886 F6000.000
G1 X86.114 Y113.886 E18.96395 F1800.000
G1 X86.114 Y86.114 E22.29524
G1 X113.886 Y86.114 E25.62654
G1 X113.886 Y113.826 E28.95064
G1 X114.600 Y114.600 F6000.000
G1 X85.400 Y114.600 E32.45326 F1800.000
G1 X85.400 Y85.400 E35.95589
G1 X114.600 Y85.400 E39.45851
G1 X114.600 Y114.540 E42.95394
G1 X114.254 Y114.400 F6000.000
G1 X112.736 Y87.607 F6000.000
G1 X112.393 Y87.264 E43.01303 F1800.000
G1 X111.367 Y87.264 E43.13798
G1 X112.736 Y88.633 E43.37377
G1 X112.736 Y89.658 E43.49872
G1 X110.342 Y87.264 E43.91122
G1 X109.316 Y87.264 E44.03617
G1 X112.736 Y90.684 E44.62537
G1 X112.736 Y91.710 E44.75032
G1 X108.290 Y87.264 E45.51622
G1 X107.265 Y87.264 E45.64117
G1 X112.736 Y92.735 E46.58378
G1 X112.736 Y93.761 E46.70873
G1 X106.239 Y87.264 E47.82804
G1 X105.213 Y87.264 E47.95299
G1 X112.736 Y94.787 E49.24901
G1 X112.736 Y95.812 E49.37396
G1 X104.188 Y87.264 E50.84668
G1 X103.162 Y87.264 E50.97163
G1 X112.736 Y96.838 E52.62105
G1 X112.736 Y97.864 E52.74600
G1 X102.136 Y87.264 E54.57213
G1 X101.111 Y87.264 E54.69708
G1 X112.736 Y98.889 E56.69991
G1 X112.736 Y99.915 E56.82486
G1 X100.085 Y87.264 E59.00440
G1 X99.059 Y87.264 E59.12935
G1 X112.736 Y100.941 E61.48559
G1 X112.736 Y101.966 E61.61054
G1 X98.034 Y87.264 E64.14348
G1 X97.008 Y87.264 E64.26843
G1 X112.736 Y102.992 E66.97808
G1 X112.736 Y104.018 E67.10303
G1 X95.982 Y87.264 E69.98938
G1 X94.956 Y87.264 E70.11433
G1 X112.736 Y105.044 E73.17739
G1 X112.736 Y106.069 E73.30234
G1 X93.931 Y87.264 E76.54210
G1 X92.905 Y87.264 E76.66705
G1 X112.736 Y107.095 E80.08351
G1 X112.736 Y108.121 E80.20846
G1 X91.879 Y87.264 E83.80163
G1 X90.854 Y87.264 E83.92658
G1 X112.736 Y109.146 E87.69645
G1 X112.736 Y110.172 E87.82140
G1 X89.828 Y87.264 E91.76798
G1 X88.802 Y87.264 E91.89292
G1 X112.736 Y111.198 E96.01621
G1 X112.736 Y112.223 E96.14115
G1 X87.777 Y87.264 E100.44114
G1 X87.264 Y87.777 E100.52949
G1 X112.223 Y112.736 E104.82947
G1 X111.198 Y112.736 E104.95442
G1 X87.264 Y88.802 E109.07770
G1 X87.264 Y89.828 E109.20265
G1 X110.172 Y112.736 E113.14922
G1 X109.146 Y112.736 E113.27417
G1 X87.264 Y90.854 E117.04404
G1 X87.264 Y91.879 E117.16899
G1 X108.121 Y112.736 E120.76215
G1 X107.095 Y112.736 E120.88710
G1 X87.264 Y92.905 E124.30356
G1 X87.264 Y93.931 E124.42851
G1 X106.069 Y112.736 E127.66827
G1 X105.043 Y112.736 E127.79322
G1 X87.264 Y94.956 E130.85627
G1 X87.264 Y95.982 E130.98122
G1 X104.018 Y112.736 E133.86757
G1 X102.992 Y112.736 E133.99252
G1 X87.264 Y97.008 E136.70217
G1 X87.264 Y98.034 E136.82711
G1 X101.966 Y112.736 E139.36006
G1 X100.941 Y112.736 E139.48501
G1 X87.264 Y99.059 E141.84124
G1 X87.264 Y100.085 E141.96619
G1 X99.915 Y112.736 E144.14573
G1 X98.889 Y112.736 E144.27068
G1 X87.264 Y101.111 E146.27351
G1 X87.264 Y102.136 E146.39845
G1 X97.864 Y112.736 E148.22458
G1 X96.838 Y112.736 E148.34953
G1 X87.264 Y103.162 E149.99895
G1 X87.264 Y104.188 E150.12390
G1 X95.812 Y112.736 E151.59662
G1 X94.787 Y112.736 E151.72157
G1 X87.264 Y105.213 E153.01758
G1 X87.264 Y106.239 E153.14253
G1 X93.761 Y112.736 E154.26184
G1 X92.735 Y112.736 E154.38679
G1 X87.264 Y107.265 E155.32940
G1 X87.264 Y108.290 E155.45434
G1 X91.710 Y112.736 E156.22025
G1 X90.684 Y112.736 E156.34520
G1 X87.264 Y109.316 E156.93439
G1 X87.264 Y110.342 E157.05934
G1 X89.658 Y112.736 E157.47184
G1 X88.632 Y112.736 E157.59679
G1 X87.264 Y111.368 E157.83258
G1 X87.264 Y112.393 E157.95753
G1 X87.607 Y112.736 E158.01661
G1 Z0.700 F6000.000
G1 X114.004 Y114.004 F6000.000
G1 X85.996 Y114.004 E159.49451 F3000.000
G1 X85.996 Y85.996 E160.97240
G1 X114.004 Y85.996 E162.45030
G1 X114.004 Y113.944 E163.92503
G1 X114.423 Y114.423 F6000.000
G1 X85.577 Y114.423 E165.44713 F3000.000
G1 X85.577 Y85.577 E166.96923
G1 X114.423 Y85.577 E168.49133
G1 X114.423 Y114.363 E170.01027
G1 X114.800 Y114.800 F6000.000
G1 X85.200 Y114.800 E171.26172 F1500.000
G1 X85.200 Y85.200 E172.51318
G1 X114.800 Y85.200 E173.76464
G1 X114.800 Y114.740 E175.01356
G1 X114.454 Y114.600 F6000.000
G1 X113.539 Y113.757 F6000.000
G1 X113.757 Y113.539 E175.02983 F1200.000
G1 X113.757 Y112.946 E175.06120
G1 X112.946 Y113.757 E175.12183
G1 X112.352 Y113.757 E175.15319
G1 X113.757 Y112.352 E175.25818
G1 X113.757 Y111.759 E175.28954
G1 X111.759 Y113.757 E175.43888
G1 X111.165 Y113.757 E175.47025
G1 X113.757 Y111.165 E175.66394
G1 X113.757 Y110.572 E175.69531
G1 X110.572 Y113.757 E175.93336
G1 X109.979 Y113.757 E175.96473
G1 X113.757 Y109.979 E176.24713
G1 X113.757 Y109.385 E176.27850
G1 X109.385 Y113.757 E176.60526
G1 X108.792 Y113.757 E176.63663
G1 X113.757 Y108.792 E177.00775
G1 X113.757 Y108.199 E177.03911
G1 X108.199 Y113.757 E177.45459
G1 X107.605 Y113.757 E177.48595
G1 X113.757 Y107.605 E177.94578
G1 X113.757 Y107.012 E177.97715
G1 X107.012 Y113.757 E178.48133
G1 X106.418 Y113.757 E178.51270
G1 X113.757 Y106.418 E179.06124
G1 X113.757 Y105.825 E179.09261
G1 X105.825 Y113.757 E179.68551
G1 X105.232 Y113.757 E179.71687
G1 X113.757 Y105.232 E180.35412
G1 X113.757 Y104.638 E180.38549
G1 X104.638 Y113.757 E181.06710
G1 X104.045 Y113.757 E181.09846
G1 X113.757 Y104.045 E181.82443
G1 X113.757 Y103.451 E181.85579
G1 X103.451 Y113.757 E182.62611
G1 X102.858 Y113.757 E182.65748
G1 X113.757 Y102.858 E183.47216
G1 X113.757 Y102.265 E183.50352
G1 X102.265 Y113.757 E184.36255
G1 X101.671 Y113.757 E184.39392
G1 X113.757 Y101.671 E185.29731
G1 X113.757 Y101.078 E185.32867
G1 X101.078 Y113.757 E186.27642
G1 X100.485 Y113.757 E186.30778
G1 X113.757 Y100.485 E187.29988
G1 X113.757 Y99.891 E187.33125
G1 X99.891 Y113.757 E188.36770
G1 X99.298 Y113.757 E188.39907
G1 X113.757 Y99.298 E189.47988
G1 X113.757 Y98.704 E189.51124
G1 X98.704 Y113.757 E190.63641
G1 X98.111 Y113.757 E190.66777
G1 X113.757 Y98.111 E191.83730
G1 X113.757 Y97.518 E191.86866
G1 X97.518 Y113.757 E193.08254
G1 X96.924 Y113.757 E193.11390
G1 X113.757 Y96.924 E194.37214
G1 X113.757 Y96.331 E194.40350
G1 X96.331 Y113.757 E195.70609
G1 X95.737 Y113.757 E195.73746
G1 X113.757 Y95.737 E197.08440
G1 X113.757 Y95.144 E197.11577
G1 X95.144 Y113.757 E198.50707
G1 X94.551 Y113.757 E198.53844
G1 X113.757 Y94.551 E199.97409
G1 X113.757 Y93.957 E200.00546
G1 X93.957 Y113.757 E201.48547
G1 X93.364 Y113.757 E201.51683
G1 X113.757 Y93.364 E203.04120
G1 X113.757 Y92.771 E203.07257
G1 X92.771 Y113.757 E204.64129
G1 X92.177 Y113.757 E204.67266
G1 X113.757 Y92.177 E206.28574
G1 X113.757 Y91.584 E206.31710
G1 X91.584 Y113.757 E207.97454
G1 X90.990 Y113.757 E208.00590
G1 X113.757 Y90.990 E209.70770
G1 X113.757 Y90.397 E209.73906
G1 X90.397 Y113.757 E211.48521
G1 X89.804 Y113.757 E211.51657
G1 X113.757 Y89.804 E213.30708
G1 X113.757 Y89.210 E213.33844
G1 X89.210 Y113.757 E215.17330
G1 X88.617 Y113.757 E215.20466
G1 X113.757 Y88.617 E217.08388
G1 X113.757 Y88.023 E217.11524
G1 X88.023 Y113.757 E219.03881
G1 X87.430 Y113.757 E219.07018
G1 X113.757 Y87.430 E221.03810
G1 X113.757 Y86.837 E221.06947
G1 X86.837 Y113.757 E223.08175
G1 X86.263 Y113.737 E223.11208
G1 X113.737 Y86.263 E225.16572
G1 X113.163 Y86.243 E225.19605
G1 X86.243 Y113.163 E227.20833
G1 X86.243 Y112.570 E227.23970
G1 X112.570 Y86.243 E229.20762
G1 X111.977 Y86.243 E229.23899
G1 X86.243 Y111.977 E231.16256
G1 X86.243 Y111.383 E231.19392
G1 X111.383 Y86.243 E233.07314
G1 X110.790 Y86.243 E233.10450
G1 X86.243 Y110.790 E234.93936
G1 X86.243 Y110.196 E234.97073
G1 X110.196 Y86.243 E236.76123
G1 X109.603 Y86.243 E236.79259
G1 X86.243 Y109.603 E238.53874
G1 X86.243 Y109.010 E238.57011
G1 X109.010 Y86.243 E240.27190
G1 X108.416 Y86.243 E240.30326
G1 X86.243 Y108.416 E241.96070
G1 X86.243 Y107.823 E241.99206
G1 X107.823 Y86.243 E243.60514
G1 X107.229 Y86.243 E243.63651
G1 X86.243 Y107.229 E245.20523
G1 X86.243 Y106.636 E245.23660
G1 X106.636 Y86.243 E246.76097
G1 X106.043 Y86.243 E246.79233
G1 X86.243 Y106.043 E248.27234
G1 X86.243 Y105.449 E248.30371
G1 X105.449 Y86.243 E249.73937
G1 X104.856 Y86.243 E249.77073
G1 X86.243 Y104.856 E251.16203
G1 X86.243 Y104.263 E251.19340
G1 X104.263 Y86.243 E252.54034
G1 X103.669 Y86.243 E252.57171
G1 X86.243 Y103.669 E253.87430
G1 X86.243 Y103.076 E253.90566
G1 X103.076 Y86.243 E255.16390
G1 X102.482 Y86.243 E255.19526
G1 X86.243 Y102.482 E256.40914
G1 X86.243 Y101.889 E256.44050
G1 X101.889 Y86.243 E257.61003
G1 X101.296 Y86.243 E257.64139
G1 X86.243 Y101.296 E258.76656
G1 X86.243 Y100.702 E258.79792
G1 X100.702 Y86.243 E259.87874
G1 X100.109 Y86.243 E259.91010
G1 X86.243 Y100.109 E260.94656
G1 X86.243 Y99.515 E260.97792
G1 X99.515 Y86.243 E261.97002
G1 X98.922 Y86.243 E262.00138
G1 X86.243 Y98.922 E262.94913
G1 X86.243 Y98.329 E262.98049
G1 X98.329 Y86.243 E263.88388
G1 X97.735 Y86.243 E263.91525
G1 X86.243 Y97.735 E264.77428
G1 X86.243 Y97.142 E264.80564
G1 X97.142 Y86.243 E265.62032
G1 X96.549 Y86.243 E265.65169
G1 X86.243 Y96.549 E266.42201
G1 X86.243 Y95.955 E266.45337
G1 X95.955 Y86.243 E267.17934
G1 X95.362 Y86.243 E267.21070
G1 X86.243 Y95.362 E267.89231
G1 X86.243 Y94.768 E267.92368
G1 X94.768 Y86.243 E268.56093
G1 X94.175 Y86.243 E268.59230
G1 X86.243 Y94.175 E269.18519
G1 X86.243 Y93.582 E269.21656
G1 X93.582 Y86.243 E269.76510
G1 X92.988 Y86.243 E269.79647
G1 X86.243 Y92.988 E270.30065
G1 X86.243 Y92.395 E270.33202
G1 X92.395 Y86.243 E270.79185
G1 X91.801 Y86.243 E270.82321
G1 X86.243 Y91.801 E271.23869
G1 X86.243 Y91.208 E271.27005
G1 X91.208 Y86.243 E271.64117
G1 X90.615 Y86.243 E271.67254
G1 X86.243 Y90.615 E271.99930
G1 X86.243 Y90.021 E272.03067
G1 X90.021 Y86.243 E272.31307
G1 X89.428 Y86.243 E272.34444
G1 X86.243 Y89.428 E272.58249
G1 X86.243 Y88.835 E272.61386
G1 X88.835 Y86.243 E272.80755
G1 X88.241 Y86.243 E272.83892
G1 X86.243 Y88.241 E272.98826
G1 X86.243 Y87.648 E273.01962
G1 X87.648 Y86.243 E273.12461
G1 X87.054 Y86.243 E273.15597
G1 X86.243 Y87.054 E273.21660
G1 X86.243 Y86.461 E273.24797
G1 X86.461 Y86.243 E273.26424
G1 Z1.000 F6000.000
G1 X114.004 Y114.004 F6000.000
G1 X85.996 Y114.004 E274.74214 F3000.000
G1 X85.996 Y85.996 E276.22003
G1 X114.004 Y85.996 E277.69793
G1 X114.004 Y113.944 E279.17266
G1 X114.423 Y114.423 F6000.000
G1 X85.577 Y114.423 E280.69476 F3000.000
G1 X85.577 Y85.577 E282.21686
G1 X114.423 Y85.577 E283.73896
G1 X114.423 Y114.363 E285.25790
G1 X114.800 Y114.800 F6000.000
G1 X85.200 Y114.800 E286.50935 F1500.000
G1 X85.200 Y85.200 E287.76081
G1 X114.800 Y85.200 E289.01227
G1 X114.800 Y114.740 E290.26119
G1 X114.454 Y114.600 F6000.000
G1 X113.757 Y86.461 F6000.000
G1 X113.539 Y86.243 E290.27746 F1200.000
G1 X112.946 Y86.243 E290.30882
G1 X113.757 Y87.054 E290.36945
G1 X113.757 Y87.648 E290.40082
G1 X112.352 Y86.243 E290.50580
G1 X111.759 Y86.243 E290.53717
G1 X113.757 Y88.241 E290.68651
G1 X113.757 Y88.835 E290.71788
G1 X111.165 Y86.243 E290.91157
G1 X110.572 Y86.243 E290.94294
G1 X113.757 Y89.428 E291.18099
G1 X113.757 Y90.021 E291.21235
G1 X109.979 Y86.243 E291.49476
G1 X109.385 Y86.243 E291.52613
G1 X113.757 Y90.615 E291.85289
G1 X113.757 Y91.208 E291.88426
G1 X108.792 Y86.243 E292.25538
G1 X108.199 Y86.243 E292.28674
G1 X113.757 Y91.801 E292.70222
G1 X113.757 Y92.395 E292.73358
G1 X107.605 Y86.243 E293.19341
G1 X107.012 Y86.243 E293.22478
G1 X113.757 Y92.988 E293.72896
G1 X113.757 Y93.582 E293.76033
G1 X106.418 Y86.243 E294.30887
G1 X105.825 Y86.243 E294.34023
G1 X113.757 Y94.175 E294.93313
G1 X113.757 Y94.768 E294.96450
G1 X105.232 Y86.243 E295.60175
G1 X104.638 Y86.243 E295.63312
G1 X113.757 Y95.362 E296.31473
G1 X113.757 Y95.955 E296.34609
G1 X104.045 Y86.243 E297.07206
G1 X103.451 Y86.243 E297.10342
G1 X113.757 Y96.549 E297.87374
G1 X113.757 Y97.142 E297.90511
G1 X102.858 Y86.243 E298.71979
G1 X102.265 Y86.243 E298.75115
G1 X113.757 Y97.735 E299.61018
G1 X113.757 Y98.329 E299.64155
G1 X101.671 Y86.243 E300.54494
G1 X101.078 Y86.243 E300.57630
G1 X113.757 Y98.922 E301.52404
G1 X113.757 Y99.515 E301.55541
G1 X100.485 Y86.243 E302.54751
G1 X99.891 Y86.243 E302.57887
G1 X113.757 Y100.109 E303.61533
G1 X113.757 Y100.702 E303.64669
G1 X99.298 Y86.243 E304.72751
G1 X98.704 Y86.243 E304.75887
G1 X113.757 Y101.296 E305.88404
G1 X113.757 Y101.889 E305.91540
G1 X98.111 Y86.243 E307.08493
G1 X97.518 Y86.243 E307.11629
G1 X113.757 Y102.482 E308.33017
G1 X113.757 Y103.076 E308.36153
G1 X96.924 Y86.243 E309.61977
G1 X96.331 Y86.243 E309.65113
G1 X113.757 Y103.669 E310.95372
G1 X113.757 Y104.263 E310.98509
G1 X95.737 Y86.243 E312.33203
G1 X95.144 Y86.243 E312.36340
G1 X113.757 Y104.856 E313.75470
G1 X113.757 Y105.449 E313.78606
G1 X94.551 Y86.243 E315.22172
G1 X93.957 Y86.243 E315.25309
G1 X113.757 Y106.043 E316.73310
G1 X113.757 Y106.636 E316.76446
G1 X93.364 Y86.243 E318.28883
G1 X92.771 Y86.243 E318.32020
G1 X113.757 Y107.229 E319.88892
G1 X113.757 Y107.823 E319.92029
G1 X92.177 Y86.243 E321.53337
G1 X91.584 Y86.243 E321.56473
G1 X113.757 Y108.416 E323.22217
G1 X113.757 Y109.010 E323.25353
G1 X90.990 Y86.243 E324.95532
G1 X90.397 Y86.243 E324.98669
G1 X113.757 Y109.603 E326.73284
G1 X113.757 Y110.196 E326.76420
G1 X89.804 Y86.243 E328.55470
G1 X89.210 Y86.243 E328.58607
G1 X113.757 Y110.790 E330.42093
G1 X113.757 Y111.383 E330.45229
G1 X88.617 Y86.243 E332.33151
G1 X88.023 Y86.243 E332.36287
G1 X113.757 Y111.977 E334.28644
G1 X113.757 Y112.570 E334.31781
G1 X87.430 Y86.243 E336.28573
G1 X86.837 Y86.243 E336.31710
G1 X113.757 Y113.163 E338.32938
G1 X113.737 Y113.737 E338.35970
G1 X86.263 Y86.263 E340.41335
G1 X86.243 Y86.837 E340.44368
G1 X113.163 Y113.757 E342.45596
G1 X112.570 Y113.757 E342.48732
G1 X86.243 Y87.430 E344.45525
G1 X86.243 Y88.023 E344.48661
G1 X111.977 Y113.757 E346.41019
G1 X111.383 Y113.757 E346.44155
G1 X86.243 Y88.617 E348.32076
G1 X86.243 Y89.210 E348.35213
G1 X110.790 Y113.757 E350.18699
G1 X110.196 Y113.757 E350.21835
G1 X86.243 Y89.804 E352.00886
G1 X86.243 Y90.397 E352.04022
G1 X109.603 Y113.757 E353.78637
G1 X109.010 Y113.757 E353.81773
G1 X86.243 Y90.990 E355.51952
G1 X86.243 Y91.584 E355.55089
G1 X108.416 Y113.757 E357.20833
G1 X107.823 Y113.757 E357.23969
G1 X86.243 Y92.177 E358.85277
G1 X86.243 Y92.771 E358.88413
G1 X107.229 Y113.757 E360.45286
G1 X106.636 Y113.757 E360.48422
G1 X86.243 Y93.364 E362.00859
G1 X86.243 Y93.957 E362.03996
G1 X106.043 Y113.757 E363.51997
G1 X105.449 Y113.757 E363.55133
G1 X86.243 Y94.551 E364.98699
G1 X86.243 Y95.144 E365.01836
G1 X104.856 Y113.757 E366.40966
G1 X104.263 Y113.757 E366.44102
G1 X86.243 Y95.737 E367.78797
G1 X86.243 Y96.331 E367.81933
G1 X103.669 Y113.757 E369.12192
G1 X103.076 Y113.757 E369.15329
G1 X86.243 Y96.924 E370.41152
G1 X86.243 Y97.518 E370.44289
G1 X102.482 Y113.757 E371.65677
G1 X101.889 Y113.757 E371.68813
G1 X86.243 Y98.111 E372.85765
