; generated by Slic3r 1.2.9 on 2018-02-04 at 13:50:07

; external perimeters extrusion width = 0.40mm
; perimeters extrusion width = 0.48mm
; infill extrusion width = 0.48mm
; solid infill extrusion width = 0.48mm
; top infill extrusion width = 0.48mm

M107
M190 S110 ; set bed temperature
M104 S200 ; set temperature
G92 ; home all axes
G1 Z5 F5000 ; lift nozzle

M109 S200 ; wait for temperature to be reached
G21 ; set units to millimeters
G90 ; use absolute coordinates
M82 ; use absolute distances for extrusion
G92 E0
G1 Z0.400 F6000.000
G1 E-3.00000 F2400.00000
G92 E0
G1 X89.827 Y90.720 F6000.000
G1 E3.00000 F2400.00000
G1 X91.583 Y89.220 E3.27697 F1800.000
G1 X93.743 Y88.404 E3.55393
G1 X95.000 Y88.286 E3.70540
G1 X105.000 Y88.286 E4.90493
G1 X107.275 Y88.683 E5.18190
G1 X109.280 Y89.827 E5.45886 F1800.000
G1 X110.780 Y91.583 E5.73583
G1 X111.595 Y93.743 E6.01280
G1 X111.714 Y95.000 E6.16426
G1 X111.714 Y105.000 E7.36385
G1 X111.317 Y107.275 E7.64082
G1 X110.173 Y109.280 E7.91779
G1 X108.417 Y110.780 E8.19475
G1 X106.257 Y111.596 E8.47172
G1 X105.000 Y111.714 E8.62319
G1 X95.000 Y111.714 E9.82271
G1 X92.725 Y111.317 E10.09968
G1 X90.720 Y110.173 E10.37665
G1 X89.220 Y108.417 E10.65362
G1 X88.405 Y106.257 E10.93058
G1 X88.286 Y105.000 E11.08205
G1 X88.286 Y95.000 E12.28164
G1 X88.683 Y92.725 E12.55860
G1 X89.797 Y90.772 E12.82837
G1 E9.82837 F2400.00000
G92 E0
G1 X103.172 Y103.172 F6000.000
G1 E3.00000 F2400.00000
G1 X96.828 Y103.172 E3.76090 F1800.000
G1 X96.828 Y96.828 E4.52187
G1 X103.172 Y96.828 E5.28277
G1 X103.172 Y103.112 E6.03654
G1 X103.886 Y103.886 F6000.000
G1 X96.114 Y103.886 E6.96878 F1800.000
G1 X96.114 Y96.114 E7.90107
G1 X103.886 Y96.114 E8.83331
G1 X103.886 Y103.826 E9.75841
G1 X104.600 Y104.600 F6000.000
G1 X95.400 Y104.600 E10.86197 F1800.000
G1 X95.400 Y95.400 E11.96560
G1 X104.600 Y95.400 E13.06916
G1 X104.600 Y104.540 E14.16559
G1 X104.254 Y104.400 F6000.000
G1 X102.736 Y97.607 F6000.000
G1 X102.393 Y97.264 E14.22470 F1800.000
G1 X101.367 Y97.264 E14.34970
G1 X102.736 Y98.632 E14.58559
G1 X102.736 Y99.658 E14.71059
G1 X100.341 Y97.264 E15.12326
G1 X99.315 Y97.264 E15.24827
G1 X102.736 Y100.684 E15.83772
G1 X102.736 Y101.710 E15.96272
G1 X98.289 Y97.264 E16.72896
G1 X97.284 Y97.284 E16.85154
G1 X102.716 Y102.716 E17.78766
G1 X101.710 Y102.736 E17.91024
G1 X97.264 Y98.290 E18.67647
G1 X97.264 Y99.316 E18.80148
G1 X100.685 Y102.736 E19.39093
G1 X99.659 Y102.736 E19.51593
G1 X97.264 Y100.342 E19.92860
G1 X97.264 Y101.368 E20.05361
G1 X98.633 Y102.736 E20.28949
G1 X97.607 Y102.736 E20.41450
G1 X97.264 Y102.393 E20.47360
G1 Z0.700 F6000.000
G1 X104.004 Y104.004 F6000.000
G1 X95.996 Y104.004 E20.89615 F900.000
G1 X95.996 Y95.996 E21.31872
G1 X104.004 Y95.996 E21.74127
G1 X104.004 Y103.944 E22.16067
G1 X104.423 Y104.423 F6000.000
G1 X95.577 Y104.423 E22.62743 F900.000
G1 X95.577 Y95.577 E23.09421
G1 X104.423 Y95.577 E23.56096
G1 X104.423 Y104.363 E24.02458
G1 X104.800 Y104.800 F6000.000
G1 X95.200 Y104.800 E24.43045 F900.000
G1 X95.200 Y95.200 E24.83635
G1 X104.800 Y95.200 E25.24223
G1 X104.800 Y104.740 E25.64559
G1 X104.454 Y104.600 F6000.000
G1 X103.539 Y103.757 F6000.000
G1 X103.757 Y103.539 E25.66227 F1200.000
G1 X103.757 Y102.931 E25.69519
G1 X102.931 Y103.757 E25.75844
G1 X102.323 Y103.757 E25.79136
G1 X103.757 Y102.323 E25.90117
G1 X103.757 Y101.715 E25.93410
G1 X101.715 Y103.757 E26.09048
G1 X101.107 Y103.757 E26.12340
G1 X103.757 Y101.107 E26.32635
G1 X103.757 Y100.499 E26.35927
G1 X100.499 Y103.757 E26.60878
G1 X99.891 Y103.757 E26.64171
G1 X103.757 Y99.891 E26.93779
G1 X103.757 Y99.283 E26.97071
G1 X99.283 Y103.757 E27.31336
G1 X98.675 Y103.757 E27.34628
G1 X103.757 Y98.675 E27.73549
G1 X103.757 Y98.067 E27.76842
G1 X98.067 Y103.757 E28.20420
G1 X97.459 Y103.757 E28.23713
G1 X103.757 Y97.459 E28.71947
G1 X103.757 Y96.851 E28.75240
G1 X96.851 Y103.757 E29.28131
G1 X96.263 Y103.737 E29.31316
G1 X103.737 Y96.263 E29.88558
G1 X103.149 Y96.243 E29.91743
G1 X96.243 Y103.149 E30.44634
G1 X96.243 Y102.541 E30.47927
G1 X102.541 Y96.243 E30.96162
G1 X101.933 Y96.243 E30.99454
G1 X96.243 Y101.933 E31.43032
G1 X96.243 Y101.325 E31.46325
G1 X101.325 Y96.243 E31.85246
G1 X100.717 Y96.243 E31.88538
G1 X96.243 Y100.717 E32.22803
G1 X96.243 Y100.109 E32.26096
G1 X100.109 Y96.243 E32.55703
G1 X99.501 Y96.243 E32.58996
G1 X96.243 Y99.501 E32.83947
G1 X96.243 Y98.893 E32.87240
G1 X98.893 Y96.243 E33.07534
G1 X98.285 Y96.243 E33.10827
G1 X96.243 Y98.285 E33.26464
G1 X96.243 Y97.677 E33.29757
G1 X97.677 Y96.243 E33.40738
G1 X97.069 Y96.243 E33.44031
G1 X96.243 Y97.069 E33.50355
G1 X96.243 Y96.461 E33.53648
G1 X96.461 Y96.243 E33.55315
G1 Z1.000 F6000.000
G1 X104.004 Y104.004 F6000.000
G1 X95.996 Y104.004 E33.97570 F900.000
G1 X95.996 Y95.996 E34.39827
G1 X104.004 Y95.996 E34.82082
G1 X104.004 Y103.944 E35.24023
G1 X104.423 Y104.423 F6000.000
G1 X95.577 Y104.423 E35.70698 F900.000
G1 X95.577 Y95.577 E36.17376
G1 X104.423 Y95.577 E36.64051
G1 X104.423 Y104.363 E37.10413
G1 X104.800 Y104.800 F6000.000
G1 X95.200 Y104.800 E37.51001 F900.000
G1 X95.200 Y95.200 E37.91590
G1 X104.800 Y95.200 E38.32178
G1 X104.800 Y104.740 E38.72514
G1 X104.454 Y104.600 F6000.000
G1 X103.757 Y96.461 F6000.000
G1 X103.539 Y96.243 E38.74182 F1200.000
G1 X102.931 Y96.243 E38.77475
G1 X103.757 Y97.069 E38.83799
G1 X103.757 Y97.677 E38.87092
G1 X102.323 Y96.243 E38.98072
G1 X101.715 Y96.243 E39.01365
G1 X103.757 Y98.285 E39.17003
G1 X103.757 Y98.893 E39.20296
G1 X101.107 Y96.243 E39.40590
G1 X100.499 Y96.243 E39.43883
G1 X103.757 Y99.501 E39.68833
G1 X103.757 Y100.109 E39.72126
G1 X99.891 Y96.243 E40.01734
G1 X99.283 Y96.243 E40.05027
G1 X103.757 Y100.717 E40.39291
G1 X103.757 Y101.325 E40.42584
G1 X98.675 Y96.243 E40.81505
G1 X98.067 Y96.243 E40.84797
G1 X103.757 Y101.933 E41.28375
G1 X103.757 Y102.541 E41.31668
G1 X97.459 Y96.243 E41.79902
G1 X96.851 Y96.243 E41.83195
G1 X103.757 Y103.149 E42.36086
G1 X103.737 Y103.737 E42.39273
G1 X96.263 Y96.263 E42.96514
G1 X96.243 Y96.851 E42.99701
G1 X103.149 Y103.757 E43.52592
G1 X102.541 Y103.757 E43.55885
G1 X96.243 Y97.459 E44.04119
G1 X96.243 Y98.067 E44.07412
G1 X101.933 Y103.757 E44.50990
G1 X101.325 Y103.757 E44.54283
G1 X96.243 Y98.675 E44.93204
G1 X96.243 Y99.283 E44.96496
G1 X100.717 Y103.757 E45.30761
G1 X100.109 Y103.757 E45.34053
G1 X96.243 Y99.891 E45.63661
G1 X96.243 Y100.499 E45.66954
G1 X99.501 Y103.757 E45.91905
G1 X98.893 Y103.757 E45.95197
G1 X96.243 Y101.107 E46.15492
G1 X96.243 Y101.715 E46.18784
G1 X98.285 Y103.757 E46.34422
G1 X97.677 Y103.757 E46.37715
G1 X96.243 Y102.323 E46.48696
G1 X96.243 Y102.931 E46.51988
G1 X97.069 Y103.757 E46.58313
G1 X96.461 Y103.757 E46.61605
G1 X96.243 Y103.539 E46.63273
M106 S224.4
G1 Z1.300 F6000.000
G1 X104.004 Y104.004 F6000.000
G1 X95.996 Y104.004 E47.05528 F900.000
G1 X95.996 Y95.996 E47.47785
G1 X104.004 Y95.996 E47.90040
G1 X104.004 Y103.944 E48.31980
G1 X104.423 Y104.423 F6000.000
G1 X95.577 Y104.423 E48.78656 F900.000
G1 X95.577 Y95.577 E49.25334
G1 X104.423 Y95.577 E49.72009
G1 X104.423 Y104.363 E50.18371
G1 X104.800 Y104.800 F6000.000
G1 X95.200 Y104.800 E50.58958 F900.000
G1 X95.200 Y95.200 E50.99548
G1 X104.800 Y95.200 E51.40136
G1 X104.800 Y104.740 E51.80472
G1 X104.454 Y104.600 F6000.000
G1 X103.539 Y103.757 F6000.000
G1 X103.757 Y103.539 E51.82140 F1200.000
G1 X103.757 Y102.931 E51.85432
G1 X102.931 Y103.757 E51.91757
G1 X102.323 Y103.757 E51.95049
G1 X103.757 Y102.323 E52.06030
G1 X103.757 Y101.715 E52.09323
G1 X101.715 Y103.757 E52.24960
G1 X101.107 Y103.757 E52.28253
G1 X103.757 Y101.107 E52.48547
G1 X103.757 Y100.499 E52.51840
G1 X100.499 Y103.757 E52.76791
G1 X99.891 Y103.757 E52.80084
G1 X103.757 Y99.891 E53.09691
G1 X103.757 Y99.283 E53.12984
G1 X99.283 Y103.757 E53.47248
G1 X98.675 Y103.757 E53.50541
G1 X103.757 Y98.675 E53.89461
G1 X103.757 Y98.067 E53.92754
G1 X98.067 Y103.757 E54.36332
G1 X97.459 Y103.757 E54.39624
G1 X103.757 Y97.459 E54.87858
G1 X103.757 Y96.851 E54.91151
G1 X96.851 Y103.757 E55.44042
G1 X96.263 Y103.737 E55.47228
G1 X103.737 Y96.263 E56.04469
G1 X103.149 Y96.243 E56.07654
G1 X96.243 Y103.149 E56.60545
G1 X96.243 Y102.541 E56.63838
G1 X102.541 Y96.243 E57.12072
G1 X101.933 Y96.243 E57.15364
G1 X96.243 Y101.933 E57.58942
G1 X96.243 Y101.325 E57.62235
G1 X101.325 Y96.243 E58.01155
G1 X100.717 Y96.243 E58.04448
G1 X96.243 Y100.717 E58.38712
G1 X96.243 Y100.109 E58.42005
G1 X100.109 Y96.243 E58.71612
G1 X99.501 Y96.243 E58.74905
G1 X96.243 Y99.501 E58.99856
G1 X96.243 Y98.893 E59.03149
G1 X98.893 Y96.243 E59.23443
G1 X98.285 Y96.243 E59.26736
G1 X96.243 Y98.285 E59.42373
G1 X96.243 Y97.677 E59.45666
G1 X97.677 Y96.243 E59.56647
G1 X97.069 Y96.243 E59.59939
G1 X96.243 Y97.069 E59.66264
G1 X96.243 Y96.461 E59.69556
G1 X96.461 Y96.243 E59.71224
G1 Z1.600 F6000.000
G1 X104.004 Y104.004 F6000.000
G1 X95.996 Y104.004 E60.13478 F900.000
G1 X95.996 Y95.996 E60.55736
G1 X104.004 Y95.996 E60.97991
G1 X104.004 Y103.944 E61.39931
G1 X104.423 Y104.423 F6000.000
G1 X95.577 Y104.423 E61.86607 F900.000
G1 X95.577 Y95.577 E62.33285
G1 X104.423 Y95.577 E62.79960
G1 X104.423 Y104.363 E63.26322
G1 X104.800 Y104.800 F6000.000
G1 X95.200 Y104.800 E63.66909 F900.000
G1 X95.200 Y95.200 E64.07499
G1 X104.800 Y95.200 E64.48087
G1 X104.800 Y104.740 E64.88423
G1 X104.454 Y104.600 F6000.000
G1 X103.757 Y96.461 F6000.000
G1 X103.539 Y96.243 E64.90091 F1200.000
G1 X102.931 Y96.243 E64.93383
G1 X103.757 Y97.069 E64.99708
G1 X103.757 Y97.677 E65.03000
G1 X102.323 Y96.243 E65.13981
G1 X101.715 Y96.243 E65.17274
G1 X103.757 Y98.285 E65.32911
G1 X103.757 Y98.893 E65.36204
G1 X101.107 Y96.243 E65.56498
G1 X100.499 Y96.243 E65.59791
G1 X103.757 Y99.501 E65.84742
G1 X103.757 Y100.109 E65.88035
G1 X99.891 Y96.243 E66.17642
G1 X99.283 Y96.243 E66.20935
G1 X103.757 Y100.717 E66.55199
G1 X103.757 Y101.325 E66.58492
G1 X98.675 Y96.243 E66.97412
G1 X98.067 Y96.243 E67.00705
G1 X103.757 Y101.933 E67.44283
G1 X103.757 Y102.541 E67.47575
G1 X97.459 Y96.243 E67.95809
G1 X96.851 Y96.243 E67.99102
G1 X103.757 Y103.149 E68.51993
G1 X103.737 Y103.737 E68.55180
G1 X96.263 Y96.263 E69.12421
G1 X96.243 Y96.851 E69.15608
G1 X103.149 Y103.757 E69.68498
G1 X102.541 Y103.757 E69.71791
G1 X96.243 Y97.459 E70.20025
G1 X96.243 Y98.067 E70.23318
G1 X101.933 Y103.757 E70.66895
G1 X101.325 Y103.757 E70.70188
G1 X96.243 Y98.675 E71.09109
G1 X96.243 Y99.283 E71.12402
G1 X100.717 Y103.757 E71.46666
G1 X100.109 Y103.757 E71.49959
G1 X96.243 Y99.891 E71.79566
G1 X96.243 Y100.499 E71.82859
G1 X99.501 Y103.757 E72.07810
G1 X98.893 Y103.757 E72.11102
G1 X96.243 Y101.107 E72.31396
G1 X96.243 Y101.715 E72.34689
G1 X98.285 Y103.757 E72.50327
G1 X97.677 Y103.757 E72.53619
G1 X96.243 Y102.323 E72.64600
G1 X96.243 Y102.931 E72.67893
G1 X97.069 Y103.757 E72.74217
G1 X96.461 Y103.757 E72.77510
G1 X96.243 Y103.539 E72.79177
G1 Z1.900 F6000.000
G1 X104.004 Y104.004 F6000.000
G1 X95.996 Y104.004 E73.21432 F900.000
G1 X95.996 Y95.996 E73.63690
G1 X104.004 Y95.996 E74.05944
G1 X104.004 Y103.944 E74.47885
G1 X104.423 Y104.423 F6000.000
G1 X95.577 Y104.423 E74.94560 F900.000
G1 X95.577 Y95.577 E75.41238
G1 X104.423 Y95.577 E75.87914
G1 X104.423 Y104.363 E76.34275
G1 X104.800 Y104.800 F6000.000
G1 X95.200 Y104.800 E76.74863 F900.000
G1 X95.200 Y95.200 E77.15453
G1 X104.800 Y95.200 E77.56041
G1 X104.800 Y104.740 E77.96377
G1 X104.454 Y104.600 F6000.000
G1 X103.539 Y103.757 F6000.000
G1 X103.757 Y103.539 E77.98044 F1200.000
G1 X103.757 Y102.931 E78.01337
G1 X102.931 Y103.757 E78.07661
G1 X102.323 Y103.757 E78.10954
G1 X103.757 Y102.323 E78.21935
G1 X103.757 Y101.715 E78.25227
G1 X101.715 Y103.757 E78.40865
G1 X101.107 Y103.757 E78.44158
G1 X103.757 Y101.107 E78.64452
G1 X103.757 Y100.499 E78.67745
G1 X100.499 Y103.757 E78.92695
G1 X99.891 Y103.757 E78.95988
G1 X103.757 Y99.891 E79.25596
G1 X103.757 Y99.283 E79.28888
G1 X99.283 Y103.757 E79.63152
G1 X98.675 Y103.757 E79.66445
G1 X103.757 Y98.675 E80.05366
G1 X103.757 Y98.067 E80.08659
G1 X98.067 Y103.757 E80.52236
G1 X97.459 Y103.757 E80.55529
G1 X103.757 Y97.459 E81.03763
G1 X103.757 Y96.851 E81.07056
G1 X96.851 Y103.757 E81.59946
G1 X96.263 Y103.737 E81.63132
G1 X103.737 Y96.263 E82.20373
G1 X103.149 Y96.243 E82.23559
G1 X96.243 Y103.149 E82.76449
G1 X96.243 Y102.541 E82.79742
G1 X102.541 Y96.243 E83.27976
G1 X101.933 Y96.243 E83.31269
G1 X96.243 Y101.933 E83.74846
G1 X96.243 Y101.325 E83.78139
G1 X101.325 Y96.243 E84.17060
G1 X100.717 Y96.243 E84.20353
G1 X96.243 Y100.717 E84.54617
G1 X96.243 Y100.109 E84.57910
G1 X100.109 Y96.243 E84.87517
G1 X99.501 Y96.243 E84.90810
G1 X96.243 Y99.501 E85.15761
G1 X96.243 Y98.893 E85.19053
G1 X98.893 Y96.243 E85.39347
G1 X98.285 Y96.243 E85.42640
G1 X96.243 Y98.285 E85.58278
G1 X96.243 Y97.677 E85.61570
G1 X97.677 Y96.243 E85.72551
G1 X97.069 Y96.243 E85.75844
G1 X96.243 Y97.069 E85.82168
G1 X96.243 Y96.461 E85.85461
G1 X96.461 Y96.243 E85.87128
G1 Z2.200 F6000.000
G1 X104.004 Y104.004 F6000.000
G1 X95.996 Y104.004 E86.29383 F900.000
G1 X95.996 Y95.996 E86.71640
G1 X104.004 Y95.996 E87.13895
G1 X104.004 Y103.944 E87.55836
G1 X104.423 Y104.423 F6000.000
G1 X95.577 Y104.423 E88.02511 F900.000
G1 X95.577 Y95.577 E88.49189
G1 X104.423 Y95.577 E88.95865
G1 X104.423 Y104.363 E89.42226
G1 X104.800 Y104.800 F6000.000
G1 X95.200 Y104.800 E89.82814 F900.000
G1 X95.200 Y95.200 E90.23404
G1 X104.800 Y95.200 E90.63991
G1 X104.800 Y104.740 E91.04328
G1 X104.454 Y104.600 F6000.000
G1 X103.757 Y96.461 F6000.000
G1 X103.539 Y96.243 E91.05995 F1200.000
G1 X102.931 Y96.243 E91.09288
G1 X103.757 Y97.069 E91.15612
G1 X103.757 Y97.677 E91.18905
G1 X102.323 Y96.243 E91.29886
G1 X101.715 Y96.243 E91.33178
G1 X103.757 Y98.285 E91.48816
G1 X103.757 Y98.893 E91.52109
G1 X101.107 Y96.243 E91.72403
G1 X100.499 Y96.243 E91.75696
G1 X103.757 Y99.501 E92.00646
G1 X103.757 Y100.109 E92.03939
G1 X99.891 Y96.243 E92.33547
G1 X99.283 Y96.243 E92.36839
G1 X103.757 Y100.717 E92.71103
G1 X103.757 Y101.325 E92.74396
G1 X98.675 Y96.243 E93.13317
G1 X98.067 Y96.243 E93.16610
G1 X103.757 Y101.933 E93.60187
G1 X103.757 Y102.541 E93.63480
G1 X97.459 Y96.243 E94.11714
G1 X96.851 Y96.243 E94.15007
G1 X103.757 Y103.149 E94.67897
G1 X103.737 Y103.737 E94.71084
G1 X96.263 Y96.263 E95.28325
G1 X96.243 Y96.851 E95.31512
G1 X103.149 Y103.757 E95.84403
G1 X102.541 Y103.757 E95.87696
G1 X96.243 Y97.459 E96.35930
G1 X96.243 Y98.067 E96.39223
G1 X101.933 Y103.757 E96.82800
G1 X101.325 Y103.757 E96.86093
G1 X96.243 Y98.675 E97.25014
G1 X96.243 Y99.283 E97.28306
G1 X100.717 Y103.757 E97.62570
G1 X100.109 Y103.757 E97.65863
G1 X96.243 Y99.891 E97.95471
G1 X96.243 Y100.499 E97.98763
G1 X99.501 Y103.757 E98.23714
G1 X98.893 Y103.757 E98.27007
G1 X96.243 Y101.107 E98.47301
G1 X96.243 Y101.715 E98.50594
G1 X98.285 Y103.757 E98.66231
G1 X97.677 Y103.757 E98.69524
G1 X96.243 Y102.323 E98.80505
G1 X96.243 Y102.931 E98.83798
G1 X97.069 Y103.757 E98.90122
G1 X96.461 Y103.757 E98.93414
G1 X96.243 Y103.539 E98.95082
G1 Z2.500 F6000.000
G1 X104.004 Y104.004 F6000.000
G1 X95.996 Y104.004 E99.37337 F900.000
G1 X95.996 Y95.996 E99.79594
G1 X104.004 Y95.996 E100.21849
G1 X104.004 Y103.944 E100.63790
G1 X104.423 Y104.423 F6000.000
G1 X95.577 Y104.423 E101.10465 F900.000
G1 X95.577 Y95.577 E101.57143
G1 X104.423 Y95.577 E102.03818
G1 X104.423 Y104.363 E102.50180
G1 X104.800 Y104.800 F6000.000
G1 X95.200 Y104.800 E102.90767 F900.000
G1 X95.200 Y95.200 E103.31357
G1 X104.800 Y95.200 E103.71945
G1 X104.800 Y104.740 E104.12281
G1 X104.454 Y104.600 F6000.000
G1 X103.539 Y103.757 F6000.000
G1 X103.757 Y103.539 E104.13949 F1200.000
G1 X103.757 Y102.931 E104.17242
G1 X102.931 Y103.757 E104.23566
G1 X102.323 Y103.757 E104.26858
G1 X103.757 Y102.323 E104.37839
G1 X103.757 Y101.715 E104.41132
G1 X101.715 Y103.757 E104.56770
G1 X101.107 Y103.757 E104.60062
G1 X103.757 Y101.107 E104.80356
G1 X103.757 Y100.499 E104.83649
G1 X100.499 Y103.757 E105.08600
G1 X99.891 Y103.757 E105.11893
G1 X103.757 Y99.891 E105.41500
G1 X103.757 Y99.283 E105.44793
G1 X99.283 Y103.757 E105.79057
G1 X98.675 Y103.757 E105.82350
G1 X103.757 Y98.675 E106.21271
G1 X103.757 Y98.067 E106.24563
