; generated by Slic3r 1.2.9 on 2018-02-03 at 15:30:41

; external perimeters extrusion width = 0.40mm
; perimeters extrusion width = 0.48mm
; infill extrusion width = 0.48mm
; solid infill extrusion width = 0.48mm
; top infill extrusion width = 0.48mm

M107
M104 S200 ; set temperature
G92 ; home all axes
G1 Z5 F5000 ; lift nozzle

M109 S200 ; wait for temperature to be reached
G21 ; set units to millimeters
G90 ; use absolute coordinates
M82 ; use absolute distances for extrusion
G92 E0
G1 Z0.400 F6000.000
G1 E-3.00000 F2400.00000
G92 E0
G1 X75.829 Y77.701 F6000.000
G1 E3.00000 F2400.00000
G1 X80.581 Y73.474 E3.76289 F1800.000
G1 X81.461 Y72.815 E3.89481
G1 X82.198 Y72.376 E3.99763
G1 X87.470 Y69.609 E4.71189
G1 X88.373 Y69.216 E4.82995
G1 X89.301 Y68.924 E4.94665
G1 X95.082 Y67.499 E5.66091
G1 X95.937 Y67.346 E5.76510
G1 X96.271 Y67.308 E5.80539
G1 X97.023 Y67.266 E5.89571
G1 X102.977 Y67.266 E6.60997
G1 X103.729 Y67.308 E6.70028
G1 X104.063 Y67.346 E6.74057 F1800.000
G1 X104.918 Y67.499 E6.84477
G1 X110.699 Y68.924 E7.55903
G1 X111.627 Y69.216 E7.67573
G1 X112.530 Y69.609 E7.79379
G1 X117.802 Y72.376 E8.50805
G1 X118.539 Y72.815 E8.61086
G1 X119.419 Y73.474 E8.74278
G1 X123.876 Y77.422 E9.45705
G1 X124.409 Y77.938 E9.54598
G1 X125.187 Y78.872 E9.69175
G1 X128.569 Y83.772 E10.40601
G1 X128.907 Y84.298 E10.48105
G1 X129.500 Y85.490 E10.64066
G1 X131.612 Y91.057 E11.35492
G1 X131.782 Y91.538 E11.41606
G1 X132.110 Y92.946 E11.58951
G1 X132.872 Y99.248 E12.35100
G1 X132.872 Y100.752 E12.53135
G1 X132.110 Y107.054 E13.29286
G1 X131.782 Y108.462 E13.46630
G1 X131.612 Y108.943 E13.52744
G1 X129.500 Y114.510 E14.24170
G1 X128.907 Y115.702 E14.40131
G1 X128.569 Y116.228 E14.47635
G1 X125.187 Y121.128 E15.19061
G1 X124.409 Y122.062 E15.33639
G1 X123.876 Y122.577 E15.42531
G1 X119.419 Y126.526 E16.13958
G1 X118.539 Y127.185 E16.27150
G1 X117.802 Y127.624 E16.37431
G1 X112.530 Y130.391 E17.08857
G1 X111.627 Y130.784 E17.20663
G1 X110.699 Y131.076 E17.32333
G1 X104.918 Y132.501 E18.03759
G1 X104.063 Y132.654 E18.14178
G1 X103.729 Y132.692 E18.18208
G1 X102.977 Y132.734 E18.27239
G1 X97.023 Y132.734 E18.98665
G1 X96.271 Y132.692 E19.07697
G1 X95.937 Y132.654 E19.11726
G1 X95.082 Y132.501 E19.22145
G1 X89.301 Y131.076 E19.93571
G1 X88.373 Y130.784 E20.05241
G1 X87.470 Y130.391 E20.17047
G1 X82.198 Y127.624 E20.88473
G1 X81.461 Y127.185 E20.98755
G1 X80.581 Y126.526 E21.11947
G1 X76.124 Y122.577 E21.83373
G1 X75.591 Y122.062 E21.92266
G1 X74.813 Y121.128 E22.06843
G1 X71.431 Y116.228 E22.78269
G1 X71.093 Y115.702 E22.85773
G1 X70.500 Y114.510 E23.01735
G1 X68.218 Y108.462 E23.79274
G1 X67.890 Y107.054 E23.96618
G1 X67.128 Y100.752 E24.72768
G1 X67.128 Y99.248 E24.90802
G1 X67.166 Y98.914 E24.94831
G1 X67.890 Y92.946 E25.66953
G1 X68.218 Y91.538 E25.84297
G1 X70.500 Y85.490 E26.61836
G1 X71.093 Y84.298 E26.77797
G1 X71.431 Y83.772 E26.85301
G1 X74.813 Y78.872 E27.56727
G1 X75.591 Y77.938 E27.71304
G1 X75.786 Y77.743 E27.74613
G1 E24.74613 F2400.00000
G92 E0
G1 X118.041 Y116.334 F6000.000
G1 E3.00000 F2400.00000
G1 X113.866 Y120.032 E3.66895 F1800.000
G1 X108.679 Y122.765 E4.37228
G1 X102.989 Y124.179 E5.07560
G1 X102.875 Y124.192 E5.08936
G1 X97.125 Y124.192 E5.77899
G1 X97.011 Y124.179 E5.79275
G1 X91.429 Y122.803 E6.48237
G1 X91.321 Y122.765 E6.49613
G1 X86.134 Y120.032 E7.19946
G1 X81.749 Y116.139 E7.90278
G1 X78.423 Y111.312 E8.60593
G1 X76.344 Y105.806 E9.31195
G1 X75.642 Y100.000 E10.01345
G1 X76.344 Y94.194 E10.71494
G1 X78.423 Y88.688 E11.42096
G1 X81.749 Y83.861 E12.12412
G1 X86.134 Y79.968 E12.82744
G1 X91.321 Y77.235 E13.53076
G1 X97.011 Y75.821 E14.23409
G1 X97.125 Y75.808 E14.24784
G1 X102.875 Y75.808 E14.93747
G1 X102.989 Y75.821 E14.95123
G1 X108.679 Y77.235 E15.65455 F1800.000
G1 X113.866 Y79.968 E16.35788
G1 X118.170 Y83.780 E17.04749
G1 X118.251 Y83.861 E17.06123
G1 X121.577 Y88.688 E17.76438
G1 X123.656 Y94.194 E18.47040
G1 X124.358 Y100.000 E19.17190
G1 X123.656 Y105.806 E19.87339
G1 X121.577 Y111.312 E20.57941
G1 X118.251 Y116.139 E21.28256
G1 X118.086 Y116.294 E21.30975
G1 X118.514 Y116.869 F6000.000
G1 X114.296 Y120.606 E21.98574 F1800.000
G1 X114.126 Y120.713 E22.00986
G1 X108.964 Y123.422 E22.70910
G1 X108.774 Y123.488 E22.73322
G1 X103.115 Y124.883 E23.43247
G1 X102.915 Y124.906 E23.45659
G1 X97.085 Y124.906 E24.15584
G1 X96.885 Y124.883 E24.17997
G1 X91.226 Y123.488 E24.87921
G1 X91.036 Y123.422 E24.90334
G1 X85.874 Y120.713 E25.60258
G1 X85.704 Y120.606 E25.62670
G1 X81.198 Y116.598 E26.35000
G1 X77.781 Y111.631 E27.07322
G1 X75.645 Y105.977 E27.79819
G1 X74.922 Y100.000 E28.52041
G1 X75.645 Y94.023 E29.24263
G1 X77.781 Y88.369 E29.96760
G1 X81.198 Y83.402 E30.69082
G1 X85.704 Y79.394 E31.41412
G1 X85.874 Y79.287 E31.43824
G1 X91.036 Y76.578 E32.13748
G1 X91.226 Y76.512 E32.16160
G1 X96.885 Y75.117 E32.86085
G1 X97.085 Y75.094 E32.88497
G1 X102.915 Y75.094 E33.58422
G1 X103.115 Y75.117 E33.60835
G1 X108.774 Y76.512 E34.30760 F1800.000
G1 X108.964 Y76.578 E34.33172
G1 X114.126 Y79.287 E35.03096
G1 X114.296 Y79.394 E35.05508
G1 X118.659 Y83.260 E35.75432
G1 X118.802 Y83.402 E35.77842
G1 X122.219 Y88.369 E36.50164
G1 X124.355 Y94.023 E37.22661
G1 X125.078 Y100.000 E37.94883
G1 X124.355 Y105.977 E38.67105
G1 X122.219 Y111.631 E39.39602
G1 X118.802 Y116.598 E40.11924
G1 X118.559 Y116.829 E40.15938
G1 X118.988 Y117.403 F6000.000
G1 X114.726 Y121.179 E40.84241 F1800.000
G1 X114.482 Y121.332 E40.87690
G1 X109.250 Y124.079 E41.58577
G1 X108.978 Y124.173 E41.62025
G1 X103.240 Y125.588 E42.32912
G1 X102.955 Y125.620 E42.36361
G1 X97.045 Y125.620 E43.07248
G1 X96.760 Y125.588 E43.10697
G1 X91.022 Y124.173 E43.81584
G1 X90.750 Y124.079 E43.85032
G1 X85.518 Y121.332 E44.55919
G1 X85.274 Y121.179 E44.59368
G1 X80.851 Y117.260 E45.30255
G1 X80.648 Y117.057 E45.33703
G1 X77.138 Y111.951 E46.08031
G1 X74.947 Y106.149 E46.82423
G1 X74.203 Y100.000 E47.56717
G1 X74.947 Y93.851 E48.31012
G1 X77.138 Y88.049 E49.05404
G1 X80.648 Y82.943 E49.79732
G1 X80.851 Y82.740 E49.83180
G1 X85.274 Y78.821 E50.54067
G1 X85.518 Y78.668 E50.57515
G1 X90.750 Y75.921 E51.28402
G1 X91.022 Y75.827 E51.31851
G1 X96.760 Y74.412 E52.02738
G1 X97.045 Y74.380 E52.06187
G1 X102.955 Y74.380 E52.77074
G1 X103.240 Y74.412 E52.80522
G1 X108.978 Y75.827 E53.51410 F1800.000
G1 X109.250 Y75.921 E53.54858
G1 X114.482 Y78.668 E54.25745
G1 X114.726 Y78.821 E54.29193
G1 X119.149 Y82.740 E55.00080
G1 X119.352 Y82.943 E55.03528
G1 X122.862 Y88.049 E55.77856
G1 X125.053 Y93.851 E56.52249
G1 X125.797 Y100.000 E57.26543
G1 X125.053 Y106.149 E58.00837
G1 X122.862 Y111.951 E58.75230
G1 X119.352 Y117.057 E59.49558
G1 X119.033 Y117.364 E59.54867
G1 X118.607 Y117.281 F6000.000
G1 X122.182 Y91.704 F6000.000
G1 X108.048 Y77.569 E61.96060 F1800.000
G1 X106.696 Y77.233 E62.12868
G1 X122.799 Y93.336 E64.87650
G1 X123.275 Y94.828 E65.06544
G1 X105.344 Y76.898 E68.12513
G1 X103.993 Y76.562 E68.29321
G1 X123.414 Y95.984 E71.60744
G1 X123.554 Y97.139 E71.74791
G1 X102.659 Y76.244 E75.31358
G1 X101.643 Y76.244 E75.43617
G1 X123.694 Y98.295 E79.19907
G1 X123.834 Y99.451 E79.33954
G1 X100.627 Y76.244 E83.29966
G1 X99.611 Y76.244 E83.42225
G1 X123.875 Y100.508 E87.56284
G1 X123.766 Y101.415 E87.67299
G1 X98.595 Y76.244 E91.96824
G1 X97.579 Y76.244 E92.09083
G1 X123.656 Y102.321 E96.54073
G1 X123.547 Y103.227 E96.65089
G1 X96.647 Y76.328 E101.24118
G1 X95.833 Y76.530 E101.34236
G1 X123.437 Y104.134 E106.05281
G1 X123.327 Y105.040 E106.16297
G1 X95.019 Y76.732 E110.99357
G1 X94.205 Y76.934 E111.09475
G1 X123.193 Y105.922 E116.04138
G1 X122.915 Y106.660 E116.13650
G1 X93.392 Y77.136 E121.17448
G1 X92.578 Y77.338 E121.27565
G1 X122.636 Y107.397 E126.40497
G1 X122.358 Y108.134 E126.50008
G1 X91.764 Y77.541 E131.72074
G1 X91.029 Y77.821 E131.81571
G1 X122.079 Y108.872 E137.11433
G1 X121.801 Y109.609 E137.20945
G1 X90.363 Y78.172 E142.57409
G1 X89.698 Y78.522 E142.66484
G1 X121.522 Y110.347 E148.09551
G1 X121.244 Y111.084 E148.19063
G1 X89.032 Y78.873 E153.68732
G1 X88.367 Y79.223 E153.77807
G1 X120.852 Y111.708 E159.32142
G1 X120.437 Y112.309 E159.40955
G1 X87.702 Y79.574 E164.99566
G1 X87.036 Y79.924 E165.08641
G1 X120.022 Y112.910 E170.71526
G1 X119.607 Y113.511 E170.80339
G1 X86.371 Y80.275 E176.47500
G1 X85.823 Y80.743 E176.56195
G1 X119.192 Y114.112 E182.25629
G1 X118.777 Y114.714 E182.34442
G1 X85.284 Y81.221 E188.05978
G1 X84.746 Y81.699 E188.14662
G1 X118.362 Y115.315 E193.88301
G1 X117.931 Y115.899 E193.97066
G1 X84.208 Y82.176 E199.72520
G1 X83.670 Y82.654 E199.81204
G1 X117.406 Y116.390 E205.56886
G1 X116.868 Y116.868 E205.65569
G1 X83.132 Y83.132 E211.41251
G1 X82.594 Y83.610 E211.49935
G1 X116.330 Y117.346 E217.25617
G1 X115.792 Y117.824 E217.34301
G1 X82.069 Y84.101 E223.09755
G1 X81.637 Y84.685 E223.18520
G1 X115.254 Y118.301 E228.92159
G1 X114.715 Y118.779 E229.00842
G1 X81.223 Y85.286 E234.72379
G1 X80.808 Y85.888 E234.81191
G1 X114.177 Y119.257 E240.50625
G1 X113.629 Y119.725 E240.59320
G1 X80.393 Y86.489 E246.26481
G1 X79.978 Y87.090 E246.35294
G1 X112.964 Y120.076 E251.98180
G1 X112.298 Y120.426 E252.07255
G1 X79.563 Y87.691 E257.65865
G1 X79.148 Y88.292 E257.74678
G1 X111.633 Y120.777 E263.29013
G1 X110.968 Y121.127 E263.38088
G1 X78.756 Y88.916 E268.87757
G1 X78.478 Y89.653 E268.97269
G1 X110.302 Y121.478 E274.40336
G1 X109.637 Y121.828 E274.49411
G1 X78.199 Y90.391 E279.85875
G1 X77.921 Y91.128 E279.95387
G1 X108.971 Y122.179 E285.25248
G1 X108.236 Y122.459 E285.34746
G1 X77.642 Y91.866 E290.56811
G1 X77.364 Y92.603 E290.66323
G1 X107.422 Y122.662 E295.79254
G1 X106.608 Y122.864 E295.89371
G1 X77.085 Y93.340 E300.93169
G1 X76.807 Y94.078 E301.02680
G1 X105.795 Y123.066 E305.97343
G1 X104.981 Y123.268 E306.07461
G1 X76.673 Y94.960 E310.90522
G1 X76.563 Y95.866 E311.01538
G1 X104.167 Y123.470 E315.72582
G1 X103.353 Y123.672 E315.82700
G1 X76.453 Y96.773 E320.41729
G1 X76.344 Y97.679 E320.52745
G1 X102.421 Y123.756 E324.97735
G1 X101.405 Y123.756 E325.09994
G1 X76.234 Y98.585 E329.39518
G1 X76.125 Y99.492 E329.50534
G1 X100.389 Y123.756 E333.64592
G1 X99.373 Y123.756 E333.76850
G1 X76.166 Y100.549 E337.72862
G1 X76.306 Y101.705 E337.86909
G1 X98.357 Y123.756 E341.63199
G1 X97.341 Y123.756 E341.75458
G1 X76.446 Y102.861 E345.32025
G1 X76.586 Y104.016 E345.46072
G1 X96.007 Y123.438 E348.77494
G1 X94.656 Y123.102 E348.94302
G1 X76.725 Y105.172 E352.00271
G1 X77.201 Y106.664 E352.19165
G1 X93.304 Y122.767 E354.93946
G1 X91.952 Y122.431 E355.10753
G1 X77.818 Y108.297 E357.51946
G1 X78.434 Y109.929 F6000.000
G1 X89.963 Y121.458 E359.48679 F1800.000
G1 X87.816 Y120.327 F6000.000
G1 X79.713 Y112.224 E360.86950 F1800.000
G1 X81.977 Y115.504 F6000.000
G1 X82.597 Y116.124 E360.97531 F1800.000
G1 X110.037 Y78.542 F6000.000
G1 X121.566 Y90.071 E362.94266 F1800.000
G1 X120.287 Y87.776 F6000.000
G1 X112.184 Y79.673 E364.32539 F1800.000
G1 X117.402 Y83.876 F6000.000
G1 X118.023 Y84.496 E364.43124 F1800.000
G1 Z0.700 F6000.000
G1 X118.814 Y117.230 F6000.000
G1 X114.711 Y120.881 E364.72105 F3000.000
G1 X114.031 Y121.308 E364.76342
G1 X109.344 Y123.768 E365.04278
G1 X108.586 Y124.033 E365.08516
G1 X103.445 Y125.300 E365.36452
G1 X102.647 Y125.390 E365.40691
G1 X97.353 Y125.390 E365.68627
G1 X96.555 Y125.300 E365.72865
G1 X91.414 Y124.033 E366.00801
G1 X90.656 Y123.768 E366.05039
G1 X85.969 Y121.308 E366.32975
G1 X85.289 Y120.881 E366.37213
G1 X81.326 Y117.370 E366.65149
G1 X80.758 Y116.802 E366.69386
G1 X77.751 Y112.445 E366.97322
G1 X77.323 Y111.765 E367.01559
G1 X75.446 Y106.815 E367.29494
G1 X75.181 Y106.058 E367.33727
G1 X74.453 Y100.000 E367.65923
G1 X75.181 Y93.942 E367.98120
G1 X75.446 Y93.185 E368.02353
G1 X77.323 Y88.235 E368.30288
G1 X77.751 Y87.555 E368.34525
G1 X80.758 Y83.198 E368.62461
G1 X81.326 Y82.630 E368.66698
G1 X85.289 Y79.119 E368.94634
G1 X85.969 Y78.692 E368.98872
G1 X90.656 Y76.232 E369.26808
G1 X91.414 Y75.967 E369.31046
G1 X96.555 Y74.700 E369.58982
G1 X97.353 Y74.610 E369.63220
G1 X102.647 Y74.610 E369.91156
G1 X103.445 Y74.700 E369.95394
G1 X108.586 Y75.967 E370.23330 F3000.000
G1 X109.344 Y76.232 E370.27569
G1 X114.031 Y78.692 E370.55504
G1 X114.711 Y79.119 E370.59742
G1 X118.674 Y82.630 E370.87678
G1 X119.242 Y83.198 E370.91916
G1 X122.249 Y87.555 E371.19851
G1 X122.677 Y88.235 E371.24088
G1 X124.554 Y93.185 E371.52023
G1 X124.819 Y93.942 E371.56257
G1 X125.547 Y100.000 E371.88453
G1 X124.819 Y106.058 E372.20649
G1 X124.554 Y106.815 E372.24883
G1 X122.677 Y111.765 E372.52818
G1 X122.249 Y112.445 E372.57055
G1 X119.242 Y116.802 E372.84990
G1 X118.857 Y117.187 E372.87865
G1 X119.111 Y117.526 F6000.000
G1 X114.963 Y121.217 E373.17160 F3000.000
G1 X114.240 Y121.671 E373.21666
G1 X109.511 Y124.153 E373.49850
G1 X108.705 Y124.435 E373.54355
G1 X103.519 Y125.714 E373.82540
G1 X102.671 Y125.809 E373.87045
G1 X97.329 Y125.809 E374.15230
G1 X96.481 Y125.714 E374.19735
G1 X91.295 Y124.435 E374.47920
G1 X90.489 Y124.153 E374.52425
G1 X85.760 Y121.671 E374.80609
G1 X85.037 Y121.217 E374.85115
G1 X81.039 Y117.675 E375.13299
G1 X80.435 Y117.071 E375.17804
G1 X77.401 Y112.676 E375.45988
G1 X76.947 Y111.953 E375.50493
G1 X75.053 Y106.959 E375.78677
G1 X74.771 Y106.153 E375.83180
G1 X74.031 Y100.000 E376.15882
G1 X74.771 Y93.847 E376.48585
G1 X75.053 Y93.041 E376.53088
G1 X76.947 Y88.047 E376.81271
G1 X77.401 Y87.324 E376.85776
G1 X80.435 Y82.929 E377.13960
G1 X81.039 Y82.325 E377.18466
G1 X85.037 Y78.783 E377.46650
G1 X85.760 Y78.329 E377.51155
G1 X90.489 Y75.847 E377.79339
G1 X91.295 Y75.565 E377.83845
G1 X96.481 Y74.286 E378.12029
G1 X97.329 Y74.191 E378.16535
G1 X102.671 Y74.191 E378.44719
G1 X103.519 Y74.286 E378.49225
G1 X108.705 Y75.565 E378.77409 F3000.000
G1 X109.511 Y75.847 E378.81915
G1 X114.240 Y78.329 E379.10099
G1 X114.963 Y78.783 E379.14604
G1 X118.961 Y82.325 E379.42788
G1 X119.565 Y82.929 E379.47294
G1 X122.599 Y87.324 E379.75478
G1 X123.053 Y88.047 E379.79983
G1 X124.947 Y93.041 E380.08166
G1 X125.229 Y93.847 E380.12669
G1 X125.969 Y100.000 E380.45372
G1 X125.229 Y106.153 E380.78074
G1 X124.947 Y106.959 E380.82577
G1 X123.053 Y111.953 E381.10761
G1 X122.599 Y112.676 E381.15266
G1 X119.565 Y117.071 E381.43450
G1 X119.153 Y117.483 E381.46526
G1 X119.377 Y117.793 F6000.000
G1 X119.220 Y117.950 E381.47466 F1500.000
G1 X115.190 Y121.520 E381.70227
G1 X114.429 Y121.998 E381.74030
G1 X109.662 Y124.500 E381.96791
G1 X108.813 Y124.797 E382.00594
G1 X103.586 Y126.086 E382.23355
G1 X102.692 Y126.186 E382.27158
G1 X97.308 Y126.186 E382.49920
G1 X96.414 Y126.086 E382.53723
G1 X91.187 Y124.797 E382.76484
G1 X90.338 Y124.500 E382.80287
G1 X85.571 Y121.998 E383.03048
G1 X84.810 Y121.520 E383.06851
G1 X80.780 Y117.950 E383.29613
G1 X80.144 Y117.314 E383.33416
G1 X77.086 Y112.883 E383.56177
G1 X76.607 Y112.122 E383.59980
G1 X74.698 Y107.088 E383.82741
G1 X74.401 Y106.239 E383.86543
G1 X73.651 Y100.000 E384.13111
G1 X74.401 Y93.761 E384.39679
G1 X74.698 Y92.912 E384.43481
G1 X76.607 Y87.878 E384.66242
G1 X77.086 Y87.117 E384.70045
G1 X80.144 Y82.686 E384.92806
G1 X80.780 Y82.050 E384.96609
G1 X84.810 Y78.480 E385.19370
G1 X85.571 Y78.002 E385.23173
G1 X90.338 Y75.500 E385.45934
G1 X91.187 Y75.203 E385.49737
G1 X96.414 Y73.914 E385.72499
G1 X97.308 Y73.814 E385.76302
G1 X102.692 Y73.814 E385.99063
G1 X103.586 Y73.914 E386.02866
G1 X108.813 Y75.203 E386.25627 F1500.000
G1 X109.662 Y75.500 E386.29430
G1 X114.429 Y78.002 E386.52192
G1 X115.190 Y78.480 E386.55995
G1 X119.220 Y82.050 E386.78756
G1 X119.856 Y82.686 E386.82559
G1 X122.914 Y87.117 E387.05320
G1 X123.393 Y87.878 E387.09123
G1 X125.302 Y92.912 E387.31884
G1 X125.599 Y93.761 E387.35686
G1 X126.349 Y100.000 E387.62254
G1 X125.599 Y106.239 E387.88822
G1 X125.302 Y107.088 E387.92624
G1 X123.393 Y112.122 E388.15385
G1 X122.914 Y112.883 E388.19188
G1 X119.856 Y117.314 E388.41949
G1 X119.420 Y117.750 E388.44559
G1 X119.163 Y117.735 F6000.000
G1 X118.107 Y117.434 F6000.000
G1 X119.135 Y116.406 E388.52292 F1200.000
G1 X120.466 Y114.477 F6000.000
G1 X113.945 Y120.998 E389.01360 F1200.000
G1 X112.651 Y121.695 F6000.000
G1 X121.797 Y112.549 E389.70182 F1200.000
G1 X122.610 Y111.139 F6000.000
