; generated by Slic3r 1.2.9 on 2018-02-01 at 16:43:51

; external perimeters extrusion width = 0.40mm
; perimeters extrusion width = 0.48mm
; infill extrusion width = 0.48mm
; solid infill extrusion width = 0.48mm
; top infill extrusion width = 0.48mm

M107
M104 S200 ; set temperature
G92 ; home all axes
G1 Z5 F5000 ; lift nozzle

M109 S200 ; wait for temperature to be reached
G21 ; set units to millimeters
G90 ; use absolute coordinates
M82 ; use absolute distances for extrusion
G92 E0
G1 Z0.400 F6000.000
G1 E-3.00000 F2400.00000
G92 E0
G1 X44.827 Y52.491 F6000.000
G1 E3.00000 F2400.00000
G1 X46.583 Y50.992 E3.27697 F1800.000
G1 X48.743 Y50.176 E3.55393
G1 X50.000 Y50.057 E3.70540
G1 X150.000 Y50.057 E15.70068
G1 X152.275 Y50.454 E15.97765
G1 X154.280 Y51.598 E16.25462 F1800.000
G1 X155.780 Y53.354 E16.53158
G1 X156.595 Y55.514 E16.80855
G1 X156.714 Y56.771 E16.96002
G1 X156.714 Y113.771 E23.79733
G1 X156.631 Y114.822 E23.92371
G1 X155.995 Y118.839 E24.41159
G1 X155.346 Y120.837 E24.66357
G1 X153.500 Y124.461 E25.15145
G1 X152.265 Y126.160 E25.40343
G1 X149.389 Y129.036 E25.89132
G1 X147.689 Y130.271 E26.14329
G1 X144.065 Y132.117 E26.63118
G1 X142.257 Y132.734 E26.86041
G1 X51.239 Y149.828 E37.96906
G1 X48.931 Y149.857 E38.24603
G1 X46.748 Y149.103 E38.52299
G1 X44.951 Y147.654 E38.79996
G1 X43.750 Y145.682 E39.07693
G1 X43.286 Y143.229 E39.37638
G1 X43.286 Y56.771 E49.74720
G1 X43.683 Y54.497 E50.02417
G1 X44.797 Y52.543 E50.29394
G1 E47.29394 F2400.00000
G92 E0
G1 X118.172 Y84.943 F6000.000
G1 E3.00000 F2400.00000
G1 X139.801 Y84.943 E5.59447 F1800.000
G1 X139.801 Y101.983 E7.63852
G1 X139.076 Y104.689 E7.97453
G1 X136.919 Y106.846 E8.34042
G1 X134.213 Y107.571 E8.67643
G1 X123.759 Y107.571 E9.93040
G1 X121.054 Y106.846 E10.26641
G1 X118.897 Y104.689 E10.63231
G1 X118.172 Y101.983 E10.96831
G1 X118.172 Y85.003 E13.00516
G1 X118.886 Y85.657 F6000.000
G1 X139.087 Y85.657 E15.42830 F1800.000
G1 X139.087 Y101.889 E17.37541
G1 X138.435 Y104.319 E17.67718
G1 X136.549 Y106.206 E17.99717
G1 X134.119 Y106.857 E18.29895
G1 X123.853 Y106.857 E19.53036
G1 X121.423 Y106.206 E19.83214
G1 X119.537 Y104.319 E20.15213
G1 X118.886 Y101.889 E20.45390
G1 X118.886 Y85.717 E22.39381
G1 X119.600 Y86.371 F6000.000
G1 X138.372 Y86.371 E24.64562 F1800.000
G1 X138.372 Y101.795 E26.49578
G1 X137.795 Y103.950 E26.76332
G1 X136.180 Y105.565 E27.03740
G1 X134.025 Y106.143 E27.30494
G1 X123.947 Y106.143 E28.51380
G1 X121.793 Y105.565 E28.78135
G1 X120.177 Y103.950 E29.05543
G1 X119.600 Y101.795 E29.32297
G1 X119.600 Y86.431 E31.16593
G1 X119.600 Y85.971 F6000.000
G1 X111.828 Y94.572 F6000.000
G1 X51.828 Y139.572 E40.16240 F1800.000
G1 X51.828 Y114.054 E43.22336
G1 X84.837 Y84.943 E48.50271
G1 X51.828 Y84.943 E52.46223
G1 X51.828 Y58.600 E55.62219
G1 X148.172 Y58.600 E67.17885
G1 X148.172 Y113.627 E73.77959
G1 X147.603 Y117.216 E74.21548
G1 X146.020 Y120.324 E74.63389
G1 X143.553 Y122.791 E75.05230
G1 X140.445 Y124.374 E75.47071
G1 X136.856 Y124.943 E75.90660
G1 X123.144 Y124.943 E77.55142
G1 X119.555 Y124.374 E77.98731
G1 X116.447 Y122.791 E78.40572
G1 X113.980 Y120.324 E78.82413
G1 X112.397 Y117.216 E79.24255
G1 X111.828 Y113.627 E79.67843
G1 X111.828 Y94.632 E81.95696
G1 X111.114 Y96.000 F6000.000
G1 X51.114 Y141.000 E90.95343 F1800.000
G1 X51.114 Y113.732 E94.22439
G1 X82.948 Y85.657 E99.31577
G1 X51.114 Y85.657 E103.13430
G1 X51.114 Y57.885 E106.46559
G1 X148.886 Y57.885 E118.19358
G1 X148.886 Y113.684 E124.88673
G1 X148.291 Y117.440 E125.34292
G1 X146.605 Y120.749 E125.78847
G1 X143.978 Y123.376 E126.23402
G1 X140.669 Y125.062 E126.67957
G1 X136.912 Y125.657 E127.13577
G1 X123.088 Y125.657 E128.79407
G1 X119.331 Y125.062 E129.25027
G1 X116.022 Y123.376 E129.69582
G1 X113.395 Y120.749 E130.14137
G1 X111.709 Y117.440 E130.58691
G1 X111.114 Y113.684 E131.04311
G1 X111.114 Y96.060 E133.15706
G1 X110.400 Y97.429 F6000.000
G1 X50.400 Y142.429 E142.15352 F1800.000
G1 X50.400 Y113.409 E145.63448
G1 X81.058 Y86.371 E150.53788
G1 X50.400 Y86.371 E154.21543
G1 X50.400 Y57.171 E157.71805
G1 X149.600 Y57.171 E169.61737
G1 X149.600 Y113.740 E176.40293
G1 X148.979 Y117.663 E176.87943
G1 X147.190 Y121.174 E177.35212
G1 X144.403 Y123.961 E177.82480
G1 X140.892 Y125.750 E178.29749
G1 X136.969 Y126.371 E178.77400
G1 X123.031 Y126.371 E180.44578
G1 X119.108 Y125.750 E180.92229
G1 X115.597 Y123.961 E181.39498
G1 X112.810 Y121.174 E181.86766
G1 X111.021 Y117.663 E182.34034
G1 X110.400 Y113.740 E182.81685
G1 X110.400 Y97.489 E184.76621
G1 X110.234 Y97.065 F6000.000
G1 X112.264 Y95.847 F6000.000
G1 X117.736 Y101.320 E185.69755 F1800.000
G1 X117.780 Y102.377 E185.82492
G1 X112.264 Y96.861 E186.76378
G1 X112.264 Y97.874 E186.88572
G1 X118.151 Y103.761 E187.88770
G1 X121.981 Y107.591 F6000.000
G1 X138.633 Y124.243 E190.72160 F1800.000
G1 X139.507 Y124.104 E190.82818
G1 X123.366 Y107.962 E193.57538
G1 X124.423 Y108.006 E193.70274
G1 X140.382 Y123.966 E196.41884
G1 X141.061 Y123.631 E196.50989
G1 X125.436 Y108.006 E199.16900
G1 X126.450 Y108.006 E199.29094
G1 X141.732 Y123.289 E201.89185
G1 X142.403 Y122.947 E201.98251
G1 X127.463 Y108.006 E204.52520
G1 X128.476 Y108.006 E204.64714
G1 X143.074 Y122.605 E207.13163
G1 X143.636 Y122.153 E207.21836
G1 X129.489 Y108.006 E209.62594
G1 X130.503 Y108.006 E209.74788
G1 X144.142 Y121.646 E212.06924
G1 X144.649 Y121.140 E212.15547
G1 X131.516 Y108.006 E214.39060
G1 X132.529 Y108.006 E214.51254
G1 X145.156 Y120.633 E216.66146
G1 X145.662 Y120.126 E216.74768
G1 X133.542 Y108.006 E218.81037
G1 X134.468 Y107.918 E218.92221
G1 X146.023 Y119.474 E220.88883
G1 X146.365 Y118.803 E220.97949
G1 X135.267 Y107.704 E222.86830
G1 X136.066 Y107.490 E222.96787
G1 X146.707 Y118.131 E224.77888
G1 X147.049 Y117.460 E224.86955
G1 X136.865 Y107.276 E226.60277
G1 X137.447 Y106.845 E226.68994
G1 X147.271 Y116.669 E228.36190
G1 X147.410 Y115.794 E228.46847
G1 X137.954 Y106.338 E230.07778
G1 X138.460 Y105.832 E230.16401
G1 X147.548 Y114.919 E231.71067
G1 X147.687 Y114.045 E231.81725
G1 X138.967 Y105.325 E233.30127
G1 X139.460 Y104.805 E233.38752
G1 X147.736 Y113.081 E234.79599
G1 X147.736 Y112.068 E234.91793
G1 X139.674 Y104.006 E236.28996
G1 X139.889 Y103.207 E236.38952
G1 X147.736 Y111.054 E237.72511
G1 X147.736 Y110.041 E237.84705
G1 X140.103 Y102.408 E239.14619
G1 X140.236 Y101.528 E239.25327
G1 X147.736 Y109.028 E240.52968
G1 X147.736 Y108.015 E240.65162
G1 X140.236 Y100.515 E241.92803
G1 X140.236 Y99.501 E242.04996
G1 X147.736 Y107.001 E243.32637
G1 X147.736 Y105.988 E243.44831
G1 X140.236 Y98.488 E244.72472
G1 X140.236 Y97.475 E244.84666
G1 X147.736 Y104.975 E246.12307
G1 X147.736 Y103.962 E246.24501
G1 X140.236 Y96.462 E247.52142
G1 X140.236 Y95.448 E247.64335
G1 X147.736 Y102.948 E248.91976
G1 X147.736 Y101.935 E249.04170
G1 X140.236 Y94.435 E250.31811
G1 X140.236 Y93.422 E250.44005
G1 X147.736 Y100.922 E251.71646
G1 X147.736 Y99.909 E251.83840
G1 X140.236 Y92.409 E253.11481
G1 X140.236 Y91.395 E253.23674
G1 X147.736 Y98.895 E254.51315
G1 X147.736 Y97.882 E254.63509
G1 X140.236 Y90.382 E255.91150
G1 X140.236 Y89.369 E256.03344
G1 X147.736 Y96.869 E257.30985
G1 X147.736 Y95.855 E257.43179
G1 X140.236 Y88.356 E258.70820
G1 X140.236 Y87.342 E258.83013
G1 X147.736 Y94.842 E260.10654
G1 X147.736 Y93.829 E260.22848
G1 X140.236 Y86.329 E261.50489
G1 X140.236 Y85.316 E261.62683
G1 X147.736 Y92.816 E262.90324
G1 X137.758 Y124.381 F6000.000
G1 X112.264 Y98.887 E267.24212 F1800.000
G1 X112.264 Y99.900 E267.36406
G1 X136.871 Y124.507 E271.55196
G1 X135.858 Y124.507 E271.67390
G1 X112.264 Y100.914 E275.68936
G1 X112.264 Y101.927 E275.81130
G1 X134.844 Y124.507 E279.65431
G1 X133.831 Y124.507 E279.77625
G1 X112.264 Y102.940 E283.44681
G1 X112.264 Y103.953 E283.56875
G1 X132.818 Y124.507 E287.06686
G1 X131.805 Y124.507 E287.18880
G1 X112.264 Y104.967 E290.51447
G1 X112.264 Y105.980 E290.63640
G1 X130.791 Y124.507 E293.78962
G1 X129.778 Y124.507 E293.91156
G1 X112.264 Y106.993 E296.89233
G1 X112.264 Y108.006 E297.01427
G1 X128.765 Y124.507 E299.82259
G1 X127.752 Y124.507 E299.94453
G1 X112.264 Y109.020 E302.58040
G1 X112.264 Y110.033 E302.70234
G1 X126.738 Y124.507 E305.16577
G1 X125.725 Y124.507 E305.28771
G1 X112.264 Y111.046 E307.57869
G1 X112.264 Y112.059 E307.70062
G1 X124.712 Y124.507 E309.81915
G1 X123.699 Y124.507 E309.94109
G1 X112.264 Y113.073 E311.88718
G1 X112.387 Y114.209 E312.02478
G1 X122.562 Y124.384 E313.75637
G1 X121.358 Y124.193 E313.90307
G1 X112.578 Y115.413 E315.39730
G1 X112.769 Y116.617 E315.54400
G1 X120.154 Y124.003 E316.80088
G1 X118.277 Y123.139 F6000.000
G1 X113.632 Y118.494 E317.59133 F1800.000
G1 X112.264 Y94.834 F6000.000
G1 X117.736 Y100.306 E318.52267 F1800.000
G1 X117.736 Y99.293 E318.64461
G1 X77.478 Y59.035 E325.49616
G1 X78.491 Y59.035 E325.61810
G1 X117.736 Y98.280 E332.29720
G1 X117.736 Y97.267 E332.41914
G1 X79.505 Y59.035 E338.92580
G1 X80.518 Y59.035 E339.04774
G1 X117.736 Y96.253 E345.38195
G1 X117.736 Y95.240 E345.50389
G1 X81.531 Y59.035 E351.66565
G1 X82.544 Y59.035 E351.78759
G1 X117.736 Y94.227 E357.77690
G1 X117.736 Y93.214 E357.89884
G1 X83.558 Y59.035 E363.71571
G1 X84.571 Y59.035 E363.83764
G1 X117.736 Y92.200 E369.48206
G1 X117.736 Y91.187 E369.60400
G1 X85.584 Y59.035 E375.07597
G1 X86.598 Y59.035 E375.19791
G1 X117.736 Y90.174 E380.49743
G1 X117.736 Y89.160 E380.61937
G1 X87.611 Y59.035 E385.74644
G1 X88.624 Y59.035 E385.86838
G1 X117.736 Y88.147 E390.82301
G1 X117.736 Y87.134 E390.94495
G1 X89.637 Y59.035 E395.72712
G1 X90.651 Y59.035 E395.84906
G1 X117.736 Y86.121 E400.45879
G1 X117.736 Y85.107 E400.58073
G1 X91.664 Y59.035 E405.01801
G1 X92.677 Y59.035 E405.13995
G1 X118.149 Y84.507 E409.47511
G1 X119.163 Y84.507 E409.59705
G1 X93.690 Y59.035 E413.93222
G1 X94.704 Y59.035 E414.05416
G1 X120.176 Y84.507 E418.38932
G1 X121.189 Y84.507 E418.51126
G1 X95.717 Y59.035 E422.84642
G1 X96.730 Y59.035 E422.96836
G1 X122.202 Y84.507 E427.30352
G1 X123.216 Y84.507 E427.42546
G1 X97.743 Y59.035 E431.76062
G1 X98.757 Y59.035 E431.88256
G1 X124.229 Y84.507 E436.21772
G1 X125.242 Y84.507 E436.33966
G1 X99.770 Y59.035 E440.67483
G1 X100.783 Y59.035 E440.79676
G1 X126.255 Y84.507 E445.13193
G1 X127.269 Y84.507 E445.25387
G1 X101.796 Y59.035 E449.58903
G1 X102.810 Y59.035 E449.71097
G1 X128.282 Y84.507 E454.04613
G1 X129.295 Y84.507 E454.16807
G1 X103.823 Y59.035 E458.50323
G1 X104.836 Y59.035 E458.62517
G1 X130.309 Y84.507 E462.96033
G1 X131.322 Y84.507 E463.08227
G1 X105.849 Y59.035 E467.41744
G1 X106.863 Y59.035 E467.53937
G1 X132.335 Y84.507 E471.87454
G1 X133.348 Y84.507 E471.99648
G1 X107.876 Y59.035 E476.33164
G1 X108.889 Y59.035 E476.45358
G1 X134.362 Y84.507 E480.78874
G1 X135.375 Y84.507 E480.91068
G1 X109.903 Y59.035 E485.24584
G1 X110.916 Y59.035 E485.36778
G1 X136.388 Y84.507 E489.70294
G1 X137.401 Y84.507 E489.82488
G1 X111.929 Y59.035 E494.16004
G1 X112.942 Y59.035 E494.28198
G1 X138.415 Y84.507 E498.61715
G1 X139.428 Y84.507 E498.73909
G1 X113.956 Y59.035 E503.07425
G1 X114.969 Y59.035 E503.19619
G1 X147.736 Y91.802 E508.77290
G1 X147.736 Y90.789 E508.89484
G1 X115.982 Y59.035 E514.29910
G1 X116.995 Y59.035 E514.42104
G1 X147.736 Y89.776 E519.65285
G1 X147.736 Y88.763 E519.77479
G1 X118.009 Y59.035 E524.83416
G1 X119.022 Y59.035 E524.95610
G1 X147.736 Y87.749 E529.84301
G1 X147.736 Y86.736 E529.96495
G1 X120.035 Y59.035 E534.67942
G1 X121.048 Y59.035 E534.80136
G1 X147.736 Y85.723 E539.34338
G1 X147.736 Y84.710 E539.46532
G1 X122.062 Y59.035 E543.83490
G1 X123.075 Y59.035 E543.95684
G1 X147.736 Y83.696 E548.15396
G1 X147.736 Y82.683 E548.27590
G1 X124.088 Y59.035 E552.30058
G1 X125.101 Y59.035 E552.42252
G1 X147.736 Y81.670 E556.27475
G1 X147.736 Y80.657 E556.39669
G1 X126.115 Y59.035 E560.07647
G1 X127.128 Y59.035 E560.19841
G1 X147.736 Y79.643 E563.70574
G1 X147.736 Y78.630 E563.82768
G1 X128.141 Y59.035 E567.16257
G1 X129.154 Y59.035 E567.28451
G1 X147.736 Y77.617 E570.44694
G1 X147.736 Y76.604 E570.56888
G1 X130.168 Y59.035 E573.55887
G1 X131.181 Y59.035 E573.68081
G1 X147.736 Y75.590 E576.49836
G1 X147.736 Y74.577 E576.62029
G1 X132.194 Y59.035 E579.26539
G1 X133.208 Y59.035 E579.38733
G1 X147.736 Y73.564 E581.85997
G1 X147.736 Y72.550 E581.98191
G1 X134.221 Y59.035 E584.28211
G1 X135.234 Y59.035 E584.40405
G1 X147.736 Y71.537 E586.53180
G1 X147.736 Y70.524 E586.65374
G1 X136.247 Y59.035 E588.60904
G1 X137.261 Y59.035 E588.73098
G1 X147.736 Y69.511 E590.51383
G1 X147.736 Y68.497 E590.63577
G1 X138.274 Y59.035 E592.24618
G1 X139.287 Y59.035 E592.36812
G1 X147.736 Y67.484 E593.80608
G1 X147.736 Y66.471 E593.92802
G1 X140.300 Y59.035 E595.19353
G1 X141.314 Y59.035 E595.31547
G1 X147.736 Y65.458 E596.40853
G1 X147.736 Y64.444 E596.53047
G1 X142.327 Y59.035 E597.45108
G1 X143.340 Y59.035 E597.57302
G1 X147.736 Y63.431 E598.32119
G1 X147.736 Y62.418 E598.44313
G1 X144.353 Y59.035 E599.01884
G1 X145.367 Y59.035 E599.14078
G1 X147.736 Y61.405 E599.54405
G1 X147.736 Y60.391 E599.66599
G1 X146.380 Y59.035 E599.89681
G1 X147.393 Y59.035 E600.01875
G1 X147.736 Y59.378 E600.07713
G1 X111.660 Y94.230 F6000.000
G1 X76.465 Y59.035 E606.06697 F1800.000
G1 X75.452 Y59.035 E606.18891
G1 X111.081 Y94.664 E612.25267
G1 X110.502 Y95.098 E612.33977
G1 X74.438 Y59.035 E618.47742
G1 X73.425 Y59.035 E618.59936
G1 X109.923 Y95.533 E624.81093
G1 X109.344 Y95.967 E624.89803
G1 X72.412 Y59.035 E631.18350
G1 X71.399 Y59.035 E631.30544
G1 X108.765 Y96.401 E637.66481
G1 X108.186 Y96.835 E637.75191
G1 X70.385 Y59.035 E644.18520
G1 X69.372 Y59.035 E644.30714
G1 X107.607 Y97.270 E650.81433
G1 X107.028 Y97.704 E650.90143
G1 X68.359 Y59.035 E657.48252
G1 X67.346 Y59.035 E657.60446
G1 X106.449 Y98.138 E664.25946
G1 X105.870 Y98.572 E664.34656
G1 X66.332 Y59.035 E671.07547
G1 X65.319 Y59.035 E671.19741
G1 X105.291 Y99.007 E678.00023
G1 X104.712 Y99.441 E678.08732
G1 X64.306 Y59.035 E684.96405
G1 X63.292 Y59.035 E685.08599
G1 X104.133 Y99.875 E692.03661
G1 X103.554 Y100.309 E692.12371
G1 X62.279 Y59.035 E699.14825
G1 X61.266 Y59.035 E699.27019
G1 X102.975 Y100.744 E706.36863
G1 X102.396 Y101.178 E706.45572
G1 X60.253 Y59.035 E713.62807
G1 X59.239 Y59.035 E713.75001
G1 X84.712 Y84.507 E718.08517
G1 X85.266 Y85.062 F6000.000
G1 X101.817 Y101.612 E720.90187 F1800.000
G1 X101.238 Y102.046 E720.98897
G1 X84.728 Y85.537 E723.79876
G1 X84.190 Y86.012 E723.88515
G1 X100.659 Y102.481 E726.68803
G1 X100.080 Y102.915 E726.77513
G1 X83.651 Y86.487 E729.57111
G1 X83.113 Y86.961 E729.65750
G1 X99.501 Y103.349 E732.44657
G1 X98.922 Y103.784 E732.53367
G1 X82.574 Y87.436 E735.31582
G1 X82.036 Y87.911 E735.40222
G1 X98.343 Y104.218 E738.17747
G1 X97.764 Y104.652 E738.26457
G1 X81.497 Y88.386 E741.03291
G1 X80.959 Y88.861 E741.11931
G1 X97.185 Y105.086 E743.88074
G1 X96.606 Y105.521 E743.96784
G1 X80.421 Y89.336 E746.72237
G1 X79.882 Y89.810 E746.80876
G1 X96.027 Y105.955 E749.55639
G1 X95.448 Y106.389 E749.64349
G1 X79.344 Y90.285 E752.38420
G1 X78.805 Y90.760 E752.47059
G1 X94.869 Y106.823 E755.20440
G1 X94.290 Y107.258 E755.29150
G1 X78.267 Y91.235 E758.01840
G1 X77.729 Y91.710 E758.10479
G1 X93.711 Y107.692 E760.82478
G1 X93.132 Y108.126 E760.91188
G1 X77.190 Y92.185 E763.62497
G1 X76.652 Y92.659 E763.71136
G1 X92.553 Y108.560 E766.41754
G1 X91.974 Y108.995 E766.50464
G1 X76.113 Y93.134 E769.20390
G1 X75.575 Y93.609 E769.29030
G1 X91.395 Y109.429 E771.98266
G1 X90.815 Y109.863 E772.06976
G1 X75.036 Y94.084 E774.75521
G1 X74.498 Y94.559 E774.84161
G1 X90.236 Y110.297 E777.52015
G1 X89.657 Y110.732 E777.60725
G1 X73.960 Y95.034 E780.27889
G1 X73.421 Y95.509 E780.36528
G1 X89.078 Y111.166 E783.03002
G1 X88.499 Y111.600 E783.11712
G1 X72.883 Y95.983 E785.77494
G1 X72.344 Y96.458 E785.86133
G1 X87.920 Y112.034 E788.51225
G1 X87.341 Y112.469 E788.59935
G1 X71.806 Y96.933 E791.24336
G1 X71.268 Y97.408 E791.32975
G1 X86.762 Y112.903 E793.96685
G1 X86.183 Y113.337 E794.05395
G1 X70.729 Y97.883 E796.68415
G1 X70.191 Y98.358 E796.77054
G1 X85.604 Y113.771 E799.39383
G1 X85.025 Y114.206 E799.48093
G1 X69.652 Y98.832 E802.09731
G1 X69.114 Y99.307 E802.18370
G1 X84.446 Y114.640 E804.79317
G1 X83.867 Y115.074 E804.88027
